!!!!SEGMENT: pl-sa--297-a-vii-57_lechleitner-ferdinand-simon--memento-domine-david.krn
!!!cenid: 17xx:422
!!!COM: Lechleitner, Ferdinand Simon
!!!COM-rismID: pe30001903
!!!CDT: ~1700-~1800
!!!CNT:
!!!OTL: Memento Domine David
!!!PDT:
!!!AGN: Sacred
!!!SMS-siglum: PL-SA
!!!SMS-shelfmark: 297/A VII 57
!!!SMS-shelfwork: W
!!!NIFC-rismSourceID: 1001039776
!!!NIFC-islandoraID:
!!!URL-pdf-islandora:
!!!URL-scan: https://bc.bdsandomierz.pl/dlibra/publication/1793/edition/1774/content @EN{Scan in the Sandomierz Diocese Digital Library} @PL{Skany w portalu Cyfrowa Biblioteka Diecezjalna w Sandomierzu}
!!!ONB-nifc:
!!!AIN: 1 alto 1 bass 1 organ 1 tenor 2 violn 1 vox
!!!key:
**kern	**fba	**kern	**kern	**kern	**text	**kern	**text	**kern	**text	**kern	**text
*part7	*	*part6	*part5	*part4	*part4	*part3	*part3	*part2	*part2	*part1	*part1
*staff7	*	*staff6	*staff5	*staff4	*staff4	*staff3	*staff3	*staff2	*staff2	*staff1	*staff1
*Iorgan	*	*Ivioln	*Ivioln	*Ibass	*	*Itenor	*	*Ialto	*	*Ivox	*
*I"Organo	*	*I"Violino 2do.	*I"Violino 1mo.	*I"Basso	*	*I"Tenore	*	*I"Alto	*	*I"Canto	*
*I'Org.	*	*I'V-no II	*I'V-no I	*I'B.	*	*I'T.	*	*I'A.	*	*I'C.	*
*clefF4	*	*clefG2	*clefG2	*clefF4	*	*clefC4	*	*clefC3	*	*clefC1	*
*k[f#]	*	*k[f#]	*k[f#]	*k[f#]	*	*k[f#]	*	*k[f#]	*	*k[f#]	*
*G:	*	*G:	*G:	*G:	*	*G:	*	*G:	*	*G:	*
*M4/4	*	*M4/4	*M4/4	*M4/4	*	*M4/4	*	*M4/4	*	*M4/4	*
*met(c)	*	*met(c)	*met(c)	*met(c)	*	*met(c)	*	*met(c)	*	*met(c)	*
!	!	!	!LO:SIC:s:o=:v:przy kluczu niby dwa krzyżyki,\nale to tylko fis w dwóch oktawach	!	!	!	!	!	!	!	!
!	!	!	!LO:TX:b:t=Memento Dne David	!	!	!	!	!	!	!	!
!LO:TX:b:t=Memento D(omi)ne David	!	!LO:TX:b:t=Memento	!LO:TX:a:t=Solo	!	!	!	!	!	!	!	!
!LO:TX:a:t=Allegro Solo.	!	!LO:TX:a:t=Allegro	!LO:TX:a:t=Allegro	!LO:TX:a:t=Allegro.	!	!LO:TX:a:t=Allegro	!	!LO:TX:a:t=Allegro	!	!LO:TX:a:t=Allegro	!
8r	.	8r	8g/	8r	.	8r	.	8r	.	8r	.
=1	=1	=1	=1	=1	=1	=1	=1	=1	=1	=1	=1
2r	.	4r	8dd\L	0r	.	0r	.	0r	.	0r	.
.	.	.	8dd\J	.	.	.	.	.	.	.	.
!	!	!LO:TX:a:t=Solo	!	!	!	!	!	!	!	!	!
.	.	8r	8dd\L	.	.	.	.	.	.	.	.
.	.	8d/	16ee\L	.	.	.	.	.	.	.	.
.	.	.	16ff#\JJ	.	.	.	.	.	.	.	.
!	!	!	!LO:TX:a:t=P:mixedbeam:problem	!	!	!	!	!	!	!	!
4r	.	8g/L	8gg\L	.	.	.	.	.	.	.	.
.	.	8g/J	8g/J	.	.	.	.	.	.	.	.
8r	.	8g/L	8r	.	.	.	.	.	.	.	.
8GG/	.	16b/L	8gg\	.	.	.	.	.	.	.	.
.	.	16cc/JJ	.	.	.	.	.	.	.	.	.
=2	=2	=2	=2	=2	=2	=2	=2	=2	=2	=2	=2
!	!	!LO:TX:a:t=P:problem=mixedbeam	!	!	!	!	!	!	!	!	!
8D\L	.	8dd/L	16ff#\LL	.	.	.	.	.	.	.	.
.	.	.	16gg\	.	.	.	.	.	.	.	.
8D\J	.	8d\J	16ff#\	.	.	.	.	.	.	.	.
.	.	.	16ee\JJ	.	.	.	.	.	.	.	.
8D\L	.	8r	16dd\LL	.	.	.	.	.	.	.	.
.	.	.	16ee\	.	.	.	.	.	.	.	.
16E\L	.	8b/	16dd\	.	.	.	.	.	.	.	.
16F#\JJ	.	.	16cc\JJ	.	.	.	.	.	.	.	.
!LO:TX:a:t=P:problem=mixedbeam	!	!	!	!	!	!	!	!	!	!	!
8G\L	.	4d/	8b/L	.	.	.	.	.	.	.	.
8GG/J	.	.	8g/J	.	.	.	.	.	.	.	.
8r	.	8r	[4.ee\	.	.	.	.	.	.	.	.
8G\	6	8b/	.	.	.	.	.	.	.	.	.
=3	=3	=3	=3	=3	=3	=3	=3	=3	=3	=3	=3
8F#\L	7	8cc\	.	1r	.	1r	.	1r	.	1r	.
8B\J	7	4b/	4dd\	.	.	.	.	.	.	.	.
8E\L	7	.	.	.	.	.	.	.	.	.	.
8A\J	7	4a/	4cc\	.	.	.	.	.	.	.	.
8D\L	7	.	.	.	.	.	.	.	.	.	.
8G\J	.	4g/	16b/LL	.	.	.	.	.	.	.	.
.	.	.	16a/JJ	.	.	.	.	.	.	.	.
8C/L	6 5	.	8.aT/L	.	.	.	.	.	.	.	.
8D/J	.	8f#/	.	.	.	.	.	.	.	.	.
.	.	.	16g/Jk	.	.	.	.	.	.	.	.
=4	=4	=4	=4	=4	=4	=4	=4	=4	=4	=4	=4
!!pagebreak:original
!	!	!	!LO:PB:g=original	!	!	!	!	!	!	!	!
!	!	!	!	!LO:SIC:s:o=:v:brak kreski taktowej	!	!LO:SIC:s:o=:v:brak kreski taktowej	!	!LO:SIC:s:o=:v:brak kreski taktowej	!	!LO:TX:a:t=S.	!
4GG/	.	4g/	4g/	2r	.	2r	.	2r	.	8r	.
.	.	.	.	.	.	.	.	.	.	8dd\	Me-
8r	.	4r	4r	.	.	.	.	.	.	16dd\LL	-men-
.	.	.	.	.	.	.	.	.	.	16ee\	.
8G\	.	.	.	.	.	.	.	.	.	16dd\	.
.	.	.	.	.	.	.	.	.	.	16ee\JJ	.
!	!	!	!	!LO:TX:a:t=Tutti	!	!	!	!LO:TX:a:t=Tutti	!	!	!
8F#\L	6	4r	4r	4r	.	4r	.	4r	.	16dd\LL	.
.	.	.	.	.	.	.	.	.	.	16ee\	.
8D\J	7	.	.	.	.	.	.	.	.	16dd\	.
.	.	.	.	.	.	.	.	.	.	16cc\JJ	.
!LO:SIC:o=:v:znak łamania taktu	!	!	!	!	!	!	!	!	!	!	!
!LO:PB:g=original	!	!	!	!	!	!	!	!	!	!	!
!LO:TX:a:t=P:problem=mixedbeam	!	!	!	!	!	!	!	!	!	!	!
8GG/L	.	8r	8r	8r	.	8r	.	8r	.	8b\	.
!LO:TX:a:t=Tutti	!	!LO:TX:a:t=Tutti	!LO:TX:a:t=Tutti	!	!	!LO:TX:a:t=Tutti	!	!	!	!	!
8G\J	.	8g/	8dd\	8G\	Me-	8B\	Me-	8g\	Me-	8g/	-to
=5	=5	=5	=5	=5	=5	=5	=5	=5	=5	=5	=5
!	!	!	!	!	!	!	!	!	!	!LO:TX:a:t=T.	!
8A\L	7	8ee\L	8gg\L	8A\	-men-	8c\	-men-	8g\	-men-	4r	.
8A\	_	8ee\J	8gg\J	8A\	-to	8c\	-to	8g\	-to	.	.
!	!	!LO:SIC:o=:v:znak łamania taktu	!	!	!	!	!	!	!	!	!
!	!	!LO:PB:g=originals	!	!	!	!	!	!	!	!	!
8A\	6	8cc\L	16ff#\LL	8A\	Do-	8A/	Do-	8f#\	Do-	8cc\	Do-
.	.	.	16gg\	.	.	.	.	.	.	.	.
8A\J	_	16dd\L	16ee\	16A\	-mi-	16A/	-mi-	16f#\	-mi-	16cc\	-mi-
.	.	16cc\JJ	16ff#\JJ	16A\	-ne	16A/	-ne	16f#\	-ne	16cc\	-ne
8B\L	6	16b\LL	8gg\L	(8B\L	Da-	4d\	Da-	4g\	Da-	4b\	Da-
.	.	16cc\	.	.	.	.	.	.	.	.	.
8A\	_	16b\	16dd\L	8A\J)	.	.	.	.	.	.	.
.	.	16cc\JJ	16cc\JJ	.	.	.	.	.	.	.	.
8B\	.	8dd\L	8b\L	8B\	-vid	8d,<\	-vid	8.g\	-vid	8b\	-vid
8G\J	.	8dd\J	8gg\J	8G\	et	8B\	et	.	.	8dd\	et
!	!	!	!	!	!	!	!	!LO:N:vis=8	!	!	!
.	x	.	.	.	.	.	.	16g\	et	.	.
=6	=6	=6	=6	=6	=6	=6	=6	=6	=6	=6	=6
!!pagebreak:original
8c\L	.	8cc\L	8ee\L	8c\	om-	8c\	om-	8g\	om-	8ee\	om-
8B\	.	8dd\	8gg\	8B\	-nis	8G/	-nis	8b\	-nis	8dd\	-nis
8c\	.	8cc\	8ee\	8c\	man-	8c\	man-	8g\	man-	8cc\	man-
8G\J	.	8b\J	8gg\J	8G\	-sue-	8d\	-sue-	8g\	-sue-	8b\	-sue-
!	!	!	!	!	!	!	!	!	!	!LO:SIC:o=:v:znak łamania taktu	!
!	!	!	!	!	!	!	!	!	!	!LO:PB:g=original	!
8c\L	.	8cc\L	8ee\L	(8c\L	-tu-	(8e\L	-tu-	4f#\	-tu-	4cc\	-tu-
8B\	6	16dd\L	8gg\	8B\J)	.	8d\J)	.	.	.	.	.
.	.	16ee\JJ	.	.	.	.	.	.	.	.	.
8A\	6	8ff#\L	8aa\	8A\	-di-	8c\	-di-	8f#\	-di-	8cc\	-di-
8G\J	.	8gg\J	8bb\J	8G\	-nis	8B\	-nis	8g\	-nis	8dd\	-nis
=7	=7	=7	=7	=7	=7	=7	=7	=7	=7	=7	=7
!	!	!	!	!LO:PB:g=original	!	!	!	!	!	!	!
!LO:TX:a:t=P:problem=mixedbeam	!	!LO:TX:a:t=P:problem=mixedbeam	!	!	!	!	!	!	!	!	!
8d\L	.	8aa\L	16ff#\LL	8d\	e-	8A/	e-	8f#\	e-	8dd\	ej-
.	.	.	16dd\	.	.	.	.	.	.	.	.
!	!	!	!LO:TX:a:t=Solo.	!	!	!	!	!	!	!	!
8D/J	.	8f#/	16cc\	8d\	-jus	8A/	-jus	8f#\	-jus	8dd\	-us
.	.	.	16dd\JJ	.	.	.	.	.	.	.	.
!LO:TX:a:t=Solo	!	!LO:TX:a:t=Solo.	!LO:TX:a:t=P:problem=mixedbeam	!	!	!	!	!	!	!	!
4r	.	8f#/	16d/LL	4r	.	4r	.	4r	.	4r	.
.	.	.	16cc\	.	.	.	.	.	.	.	.
.	.	8f#/J	16b\	.	.	.	.	.	.	.	.
.	.	.	16cc\JJ	.	.	.	.	.	.	.	.
16r	.	16d/LL	16f#/LL	2r	.	2r	.	2r	.	2r	.
16d\LL	5_ 3_	16d/	16f#/	.	.	.	.	.	.	.	.
16c\	.	16d/	16f#/	.	.	.	.	.	.	.	.
16d\JJ	.	16d/JJ	16f#/JJ	.	.	.	.	.	.	.	.
!LO:TX:t=P:problem=mixedbeam	!	!	!	!	!	!	!	!	!	!	!
16D/LL	.	16d/LL	16f#/LL	.	.	.	.	.	.	.	.
16c\	.	16d/	16f#/	.	.	.	.	.	.	.	.
16B\	.	16d/	16f#/	.	.	.	.	.	.	.	.
16c\JJ	.	16d/JJ	16f#/JJ	.	.	.	.	.	.	.	.
=8	=8	=8	=8	=8	=8	=8	=8	=8	=8	=8	=8
!	!	!	!LO:PB:g=original	!	!	!LO:PB:g=original	!	!LO:PB:g=original	!	!	!
!	!	!	!LO:TX:a:t=P:problem=mixedbeam	!	!	!	!	!	!	!	!
16F#\LL	6_ 5_	16d/LL	16f#/LL	0r	.	1r	.	00r	.	00r	.
16F#\	.	16a/	16cc\	.	.	.	.	.	.	.	.
16F#\	.	16g/	16b\	.	.	.	.	.	.	.	.
16F#\JJ	.	16a/JJ	16cc\JJ	.	.	.	.	.	.	.	.
!	!	!	!LO:TX:a:t=P:problem=mixedbeam	!	!	!	!	!	!	!	!
16F#\LL	.	16cc\LL	16d/LL	.	.	.	.	.	.	.	.
16F#\	.	16a\	16cc\	.	.	.	.	.	.	.	.
16F#\	.	16g\	16b\	.	.	.	.	.	.	.	.
16F#\JJ	x	16a\JJ	16cc\JJ	.	.	.	.	.	.	.	.
8G\L	.	16g/LL	16b\LL	.	.	.	.	.	.	.	.
.	.	16b/	16dd\	.	.	.	.	.	.	.	.
!	!	!	!LO:TX:a:t=P:problem=mixedbeam	!	!	!	!	!	!	!	!
8C\J	6 5	16a/	16gg\	.	.	.	.	.	.	.	.
.	.	16g/JJ	16a\JJ	.	.	.	.	.	.	.	.
!LO:SIC:o=:v:znak łamania taktu	!	!LO:SIC:o=:v:znak łamania taktu	!	!	!	!	!	!	!	!	!
!LO:PB:g=original	!	!LO:PB:g=original	!	!	!	!	!	!	!	!	!
8D/L	.	8g/L	8b/L	.	.	.	.	.	.	.	.
8DD/J	.	8f#/J	16a/L	.	.	.	.	.	.	.	.
.	.	.	16g/JJ	.	.	.	.	.	.	.	.
=9	=9	=9	=9	=9	=9	=9	=9	=9	=9	=9	=9
!LO:TX:a:t=P:problem=mixedbeam	!	!	!LO:TX:b:t=Tenor	!	!	!	!	!	!	!	!
8GG/L	.	4g/	4g/	.	.	8r	.	.	.	.	.
!	!	!	!	!	!	!LO:TX:a:t=Solo	!	!	!	!	!
8G\J	.	.	.	.	.	8d\	Si-	.	.	.	.
4F#\	6	4r	4r	.	.	(16d\LL	-cut	.	.	.	.
.	.	.	.	.	.	16c\JJ)	.	.	.	.	.
.	.	.	.	.	.	(16B\LL	ju-	.	.	.	.
.	.	.	.	.	.	16A\JJ)	.	.	.	.	.
4E\	3	2r	2r	.	.	8G/	-ra-	.	.	.	.
.	.	.	.	.	.	8e\	-vit	.	.	.	.
4F#\	6	.	.	.	.	8d\	Do-	.	.	.	.
.	5	.	.	.	.	16d\	-mi-	.	.	.	.
.	.	.	.	.	.	16c\	-no	.	.	.	.
=10	=10	=10	=10	=10	=10	=10	=10	=10	=10	=10	=10
!!pagebreak:original
!	!	!	!	!LO:SIC:s:o=:v:brak kreski taktowej	!	!	!	!	!	!	!
!	!	!LO:SIC:s:o=:v:brak kreski taktowej	!	!LO:TX:a:t=S.	!	!	!	!	!	!	!
8G\L	.	00r	00r	8r	.	8B\	vo-	.	.	.	.
8F#\	.	.	.	8d\	Si	8A/	-tum	.	.	.	.
8E\	.	.	.	(16d\LL	in-	8G/	vo-	.	.	.	.
.	.	.	.	16c\JJ)	.	.	.	.	.	.	.
8D\J	.	.	.	(16B\LL	-tro-	8F#/	-vit	.	.	.	.
.	.	.	.	16A\JJ)	.	.	.	.	.	.	.
!LO:TX:a:t=P:problem=mixedbeam	!	!	!	!	!	!	!	!	!	!	!
8E\L	3	.	.	8G\	-ie-	(16G/LL	De-	.	.	.	.
.	.	.	.	.	.	16B/JJ)	.	.	.	.	.
8AA/J	7 #	.	.	16F#\	-ro	(16A/LL	-o	.	.	.	.
.	.	.	.	16E\	in	16G/JJ)	.	.	.	.	.
8D\L	.	.	.	8D/	ta-	8F#/	Ja-	.	.	.	.
8F#\J	6	.	.	8F#\	-ber-	8D/	-cob	.	.	.	.
=11	=11	=11	=11	=11	=11	=11	=11	=11	=11	=11	=11
8G\L	.	.	.	8G\	-na-	00r	.	.	.	.	.
8E\J	.	.	.	16F#\	-cu-	.	.	.	.	.	.
.	.	.	.	16E\	-lum	.	.	.	.	.	.
8C#X/L	.	.	.	8A\	do-	.	.	.	.	.	.
8AA/J	.	.	.	8AA/	-mus	.	.	.	.	.	.
8D\L	.	.	.	8D/	me-	.	.	.	.	.	.
8E\	.	.	.	8D,</	-ae,	.	.	.	.	.	.
8F#\	.	.	.	8D/	si	.	.	.	.	.	.
8D\J	.	.	.	8D/	as-	.	.	.	.	.	.
=12	=12	=12	=12	=12	=12	=12	=12	=12	=12	=12	=12
!!pagebreak:original
!	!	!	!	!	!	!	!	!LO:SIC:s:o=:v:brak kreski taktowej	!	!	!
4E\	7	.	.	16E\LL	-cen-	.	.	2r	.	0r	.
.	.	.	.	16D\	.	.	.	.	.	.	.
.	.	.	.	16E\	.	.	.	.	.	.	.
.	6\_	.	.	16F#\JJ	.	.	.	.	.	.	.
!	!	!	!	!LO:SIC:o=:v:znak łamania taktu	!	!	!	!	!	!	!
!	!	!	!	!LO:PB:g=original	!	!	!	!	!	!	!
8r	.	.	.	16G\LL	.	.	.	.	.	.	.
.	.	.	.	16F#\	.	.	.	.	.	.	.
8E\	.	.	.	16G\	.	.	.	.	.	.	.
.	.	.	.	16E\JJ	.	.	.	.	.	.	.
8F#\L	6	.	.	8.A\	.	.	.	4r	.	.	.
8E\	6\	.	.	.	.	.	.	.	.	.	.
.	.	.	.	16G\	-re-	.	.	.	.	.	.
!	!	!	!	!	!	!	!	!LO:TX:a:t=Solo	!	!	!
8F#\	6	.	.	8F#,<\	-ro	.	.	8r	.	.	.
8D\J	.	.	.	8D/	in	.	.	8d\	Si	.	.
=13	=13	=13	=13	=13	=13	=13	=13	=13	=13	=13	=13
8G\L	.	.	.	8G\	lec-	.	.	8d\	de-	.	.
8F#\	.	.	.	8F#\	-tum	.	.	16e\	-de-	.	.
.	.	.	.	.	.	.	.	16f#\	-ro	.	.
8E\	.	.	.	8E\	stra-	.	.	8g\	Som-	.	.
8D\J	.	.	.	8D/	-ti-	.	.	8f#\	-num	.	.
2AA/	7 4	.	.	2AA/	-me-	.	.	8e\L	o-	.	.
.	.	.	.	.	.	.	.	16f#\L	.	.	.
.	.	.	.	.	.	.	.	16g\JJ	.	.	.
.	#	.	.	.	.	.	.	8a\	.	.	.
.	.	.	.	.	.	.	.	16g\	-cu-	.	.
.	.	.	.	.	.	.	.	16a\	-lis	.	.
=14	=14	=14	=14	=14	=14	=14	=14	=14	=14	=14	=14
!LO:PB:g=original	!	!	!	!	!	!	!	!	!	!	!
8D\L	.	00r	00r	4D/	-i	.	.	8f#\	me-	2r	.
16F#\L	.	.	.	.	.	.	.	8d\	-is	.	.
16G\JJ	.	.	.	.	.	.	.	.	.	.	.
8A\L	.	.	.	4r	.	.	.	8r	.	.	.
8D\J	.	.	.	.	.	.	.	8a\	et	.	.
!	!	!	!	!	!	!	!	!	!	!LO:TX:a:t=s.	!
4C#X/	6	.	.	2r	.	.	.	16a\LL	pal-	4r	.
.	.	.	.	.	.	.	.	16b\	.	.	.
.	.	.	.	.	.	.	.	16a\	.	.	.
.	.	.	.	.	.	.	.	16g\JJ	.	.	.
8r	.	.	.	.	.	.	.	16f#\LL	.	8r	.
.	.	.	.	.	.	.	.	16g\JJ	.	.	.
8AA/	#	.	.	.	.	.	.	16f#\	-pe-	8a\	Et
.	.	.	.	.	.	.	.	16e\	-bris	.	.
=15	=15	=15	=15	=15	=15	=15	=15	=15	=15	=15	=15
!	!	!	!	!LO:SIC:s:o=:v:brak kreski taktowej	!	!	!	!	!	!	!
8D\L	.	.	.	1r	.	0r	.	8d\	me-	8.aT\	req-
8F#\J	6	.	.	.	.	.	.	8d\	-is	.	.
.	.	.	.	.	.	.	.	.	.	16a\	-uiem
8D\L	.	.	.	.	.	.	.	8a\	dor-	8a\	.
16F#\L	6	.	.	.	.	.	.	8d\	-mi-	8b\	tem-
16G\JJ	5	.	.	.	.	.	.	.	.	.	.
!	!	!	!	!	!	!	!	!LO:SIC:o=:v:znak łamania taktu	!	!LO:SIC:o=:v:znak łamania taktu	!
!	!	!	!	!	!	!	!	!LO:PB:g=original	!	!LO:PB:g=original	!
8A\L	#	.	.	.	.	.	.	8c#X/	-ta-	4.e/	-po-
8G\J	5	.	.	.	.	.	.	(16d\LL	-ti-	.	.
.	6	.	.	.	.	.	.	16e\JJ)	.	.	.
!LO:TX:a:t=P:problem=mixedbeam	!	!	!	!	!	!	!	!	!	!	!
8A/L	5 4	.	.	.	.	.	.	4eT\	-o-	.	.
8AA\J	#	.	.	.	.	.	.	.	.	16f#/	-ri-
.	.	.	.	.	.	.	.	.	.	16g/	-bus
=16	=16	=16	=16	=16	=16	=16	=16	=16	=16	=16	=16
!!pagebreak:original
4D/	.	.	.	1r	.	.	.	4d\	-nem	8f#/	me-
.	.	.	.	.	.	.	.	.	.	8d/	-is
4r	.	.	.	.	.	.	.	4r	.	8dd\	do-
.	.	.	.	.	.	.	.	.	.	16dd\	-nec
.	.	.	.	.	.	.	.	.	.	16cc#X\	in
!	!	!	!	!	!	!	!	!	!	!LO:SIC:o=:v:znak łamania taktu	!
!	!	!	!	!	!	!	!	!	!	!LO:PB:g=original	!
8G\L	.	.	.	.	.	.	.	2r	.	8b\	ve-
16G\L	.	.	.	.	.	.	.	.	.	16b\	-ni-
16F#\JJ	.	.	.	.	.	.	.	.	.	16b\	-am
8E\L	8	.	.	.	.	.	.	.	.	8.ee\	lo-
8E\J	7	.	.	.	.	.	.	.	.	.	.
.	.	.	.	.	.	.	.	.	.	16dd\	-cum
=17	=17	=17	=17	=17	=17	=17	=17	=17	=17	=17	=17
!	!	!	!	!	!	!	!	!LO:SIC:s:o=:v:brak kreski taktowej	!	!	!
!	!	!	!	!	!	!	!	!LO:TX:a:t=1	!	!	!
8.A\L	#	.	.	1r	.	1r	.	1r	.	8cc#X\	Do-
.	_	.	.	.	.	.	.	.	.	16b\	-mi-
16G\Jk	.	.	.	.	.	.	.	.	.	16a\	-no
8F#\L	6	.	.	.	.	.	.	.	.	(16ff#\LL	ta-
.	.	.	.	.	.	.	.	.	.	16ee\JJ)	.
8F#\J	.	.	.	.	.	.	.	.	.	(16dd\LL	-ber-
.	.	.	.	.	.	.	.	.	.	16cc#X\JJ)	.
8G\L	.	.	.	.	.	.	.	.	.	(16b\LL	-na-
.	.	.	.	.	.	.	.	.	.	16a\JJ)	.
8E\	.	.	.	.	.	.	.	.	.	16g/	-cu-
.	.	.	.	.	.	.	.	.	.	16f#/	-lum
8A\	6 4	.	.	.	.	.	.	.	.	8f#/	De-
!LO:TX:a:t=P:problem=mixedbeam	!	!	!	!	!	!	!	!	!	!	!
8AA\J	5 3	.	.	.	.	.	.	.	.	(16e/LL	-o-
.	.	.	.	.	.	.	.	.	.	16d/JJ)	.
=18	=18	=18	=18	=18	=18	=18	=18	=18	=18	=18	=18
!!pagebreak:original
!	!	!LO:SIC:o:s=:v:brak kreskitaktowej	!LO:SIC:o:s=:v:brak kreski taktowej	!	!LO:SIC:o:s=:v:brak kreski taktowej	!	!	!	!	!	!
!LO:TX:a:t=Tutti	!	!LO:TX:a:t=T&colon;	!LO:TX:a:t=Tutti	!LO:TX:a:t=T.	!	!LO:SIC:s:o=:v:brak kreski taktowej	!	!LO:SIC:s:o=:v:brak kreski taktowej	!	!	!
8D\L	.	8r	8r	8r	.	8r	.	8r	.	8d/	-Ja-
8D\	.	8ff#\	8aa\	8D/	Ec-	8d\	Ec-	8f#\	Ec-	8d,</	-cob
!	!	!	!	!	!	!	!	!	!	!LO:TX:a:t=T.	!
8F#\	.	8dd\L	8ff#\L	8F#\	-ce	8A/	-ce	8d\	-ce	8dd\	Ec-
8D\J	.	16ee\L	16gg\L	8D/	au-	8d\	au-	8f#\	au-	16dd\	-ce
.	.	16ff#\JJ	16aa\JJ	.	.	.	.	.	.	16dd\	au-
!	!	!	!	!	!	!	!	!	!	!LO:SIC:o=:v:znak łamania taktu	!
!	!	!	!	!	!	!	!	!	!	!LO:PB:g=original	!
4.A\	5 4#	16ee\LL	16aa\LL	8.A\	-di-	8.e\	-di-	8.e\	-di-	8.dd\	-di-
.	.	16cc#X\	16ee\	.	.	.	.	.	.	.	.
.	.	16cc#\	16ee\	.	.	.	.	.	.	.	.
.	.	16a\JJ	16cc#X\JJ	16A\	-vi-	16A/	-vi-	16e\	-vi-	16cc#X\	-vi-
!	!	!LO:TX:a:t=P:problem=mixedbeam	!LO:TX:a:t=P:problem=mixedbeam	!	!	!LO:SIC:o=:v:znak łamania taktu	!	!	!	!	!
!	!	!	!	!	!	!LO:PB:g=original	!	!	!	!	!
.	.	8e/L	8a/L	8A\	-mus,	8A,</	-mus,	8e\	-mus	8cc#\	-mus
8F#\	#5 #	8ff#\J	8aa#X\J	8F#\	e-	8A#X/	e-	8f#\	e-	8cc#\	e-
=19	=19	=19	=19	=19	=19	=19	=19	=19	=19	=19	=19
!LO:PB:g=original	!	!	!	!	!	!	!	!	!	!	!
8D/L	6	8bb\L	8ff#\L	8D/	-am	8B\	-am	8f#\	-am	8dd\	-am
8BB/J	.	8ff#\J	8bb\J	8BB/	in	(16B\LL	in	8f#\	in	8dd\	in
.	.	.	.	.	.	16c#X\JJ)	.	.	.	.	.
!	!	!	!	!LO:SIC:o=:v:znak łamania taktu	!	!	!	!	!	!	!
!	!	!	!	!LO:PB:g=original	!	!	!	!	!	!	!
4G\	7 6	8.ff#\L	8.bb\L	8.G\	Eph-	8.d\	Eph-	8.f#\	Eph-	8.b\	Eph-
.	.	16ee\Jk	16bb\Jk	16G\	-ra-	16e\	-ra-	16e\	-ra-	16b\	-ra-
8F#\L	#	16ff#\LL	16aa#X\LL	8F#,<\	-ta,	8c#X,<\	-ta,	8f#,<\	-ta,	8cc#X,<\	-ta,
.	.	16dd#X\	16ff#\	.	.	.	.	.	.	.	.
8B\	#	16dd#\	16dd#X\	8B\	in-	8B\	in-	8f#\	in-	8dd#X\	in-
.	.	16dd#\JJ	16ff#\JJ	.	.	.	.	.	.	.	.
!	!	!	!LO:SIC:o=:v:znak łamania taktu	!	!	!	!	!	!	!	!
!	!	!	!LO:PB:g=original	!	!	!	!	!	!	!	!
8B\	_	16dd#\LL	16b\LL	8B\	-ve-	8B\	-ve-	8f#\	-ve-	8dd#\	-ve-
.	.	16dd#\	16ff#\	.	.	.	.	.	.	.	.
8B\J	.	16dd#\	16dd#X\	16B\	-ni-	16B\	-ni-	16f#\	-ni-	16dd#\	-ni-
.	x	16dd#\JJ	16ff#\JJ	16B\	mus	16B\	-mus	16f#\	-mus	16dd#\	-mus
=20	=20	=20	=20	=20	=20	=20	=20	=20	=20	=20	=20
!!pagebreak:original
8E\L	.	16ee\LL	16gg\LL	8E\	e-	8B\	eam	8g\	eam	8ee\	eam
.	.	16ee\	16gg\	.	.	.	.	.	.	.	.
8E\	.	16ee\	16gg\	16E\	-am	16B\	.	16g\	.	16ee\	.
.	.	16ee\JJ	16gg\JJ	16E\	in	16B\	in	16g\	in	16ee\	in
!	!	!	!	!	!	!	!	!LO:SIC:o=:v:znak łamania taktu	!	!	!
!	!	!	!	!	!	!	!	!LO:PB:g=original	!	!	!
8A\	#	8cc#X\L	8ee\L	8A\	cam-	8A/	cam-	8e\	cam-	8cc#X\	cam-
8A\J	.	8cc#\J	8ee\J	8A\	-pis	8A/	-pis	8e\	-pis	8cc#\	-pis
!	!	!LO:SIC:o=:v:znak łamania taktu	!	!	!	!	!	!	!	!	!
!	!	!LO:PB:g=original	!	!	!	!	!	!	!	!	!
8D/L	.	8dd\L	8ff#\L	8D/	si-	8A/	si-	8f#\	si-	8dd\	si-
8D/J	.	8a\J	8dd\J	8D,</	-lvae	8A,</	-lva	8f#,<\	-lva	8dd\	-lva
!	!	!	!	!	!	!	!	!	!	!LO:SIC:o=:v:znak łamania taktu	!
!	!	!LO:TX:a:t=P:problem=mixedbeam	!LO:TX:a:t=P:problem=mixedbeam	!	!	!	!	!LO:PB:g=original	!	!	!
8F#\L	6	8f#/L	8a\L	8F#\	in-	8d\	in-	8f#\	in-	8a\	in-
8D\J	.	8ff#\J	8ff#/J	8D/	-tro-	8d\	-tro-	8f#\	-tro-	8a\	-tro-
=21	=21	=21	=21	=21	=21	=21	=21	=21	=21	=21	=21
8.G\L	.	8.b\L	8.dd\L	8.G\	ibi-	8.B\	ibi-	8.d\	ibi-	8.b\	i-
16G\K	#4 2	16cc#X\Jk	16ee\Jk	16G\	.	16A/	.	16e\	.	16cc#X\	-bi-
!	!	!	!	!	!	!LO:SIC:o=:v:znak łamania taktu	!	!	!	!	!
!	!	!	!	!	!	!LO:PB:g=original	!	!	!	!	!
8F#\	.	8dd\L	16ff#\LL	8F#,<\	-mus	8A,</	-mus	8f#,<\	-mus	8dd\	-mus
.	.	.	16ee\	.	.	.	.	.	.	.	.
8D\J	.	8a\J	16ff#\	8d\	in	8d\	in	8a\	in	8dd\	in
.	.	.	16gg\JJ	.	.	.	.	.	.	.	.
!	!	!	!LO:TX:a:t=Ecce audivimes	!	!	!	!	!	!	!	!
8C#X/L	6	16cc#X\LL	16aa\LL	8c#X\	ta-	8e\	ta-	8a\	ta-	8ee\	ta-
.	.	16cc#\	16aa\	.	.	.	.	.	.	.	.
8BB/	.	16cc#\	16aa\	8B\	-ber-	8e\	-ber-	8a\	-ber-	8ee\	-ber-
.	.	16cc#\JJ	16aa\JJ	.	.	.	.	.	.	.	.
8C#X/	.	16ee\LL	16aa\LL	8c#X\	-na-	8c#X\	-na-	8a\	-na-	8ee\	-na-
.	.	16ee\	16aa\	.	.	.	.	.	.	.	.
!	!	!	!	!LO:SIC:o=:v:znak łamania taktu	!	!	!	!	!	!	!
!	!	!	!	!LO:PB:g=original	!	!	!	!	!	!	!
8AA/J	#	16ee\	16aa\	16B\	-cu-	16c#\	-cu-	16a\	-cu-	16dd\	-cu-
.	.	16ee\JJ	16aa\JJ	16A\	-lum	16c#\	-lum	16a\	-lum	16ee\	-lum
=22	=22	=22	=22	=22	=22	=22	=22	=22	=22	=22	=22
!	!	!LO:TX:a:t=P:problem=mixedbeam	!LO:TX:a:t=P:problem=mixedbeam	!	!	!	!	!	!	!	!
8D/L	.	8ff#\L	8aa\L	8d\	e-	8d\	e-	8a\	e-	8ff#\	e-
!	!	!	!LO:TX:b:t=fis	!	!	!	!	!	!	!	!
8DD/J	.	8f#/J	8f#/J	8D/	-jus	8d\	-jus	8a\	-jus	8ff#,<\	-jus
*clefC1	*	*	*	*	*	*	*	*	*	*	*
*k[f#]	*	*	*	*	*	*	*	*	*	*	*
*^	*	*	*	*	*	*	*	*	*	*	*
8ryy	8A'\L	.	4r	4r	4r	.	4r	.	4r	.	8dd\	ad-
8ryy	8A'\J	.	.	.	.	.	.	.	.	.	8dd\	-o-
16cc#X/LL	4rD	.	2r	2r	2r	.	2r	.	4r	.	16cc#X\LL	-ra-
16dd/	.	.	.	.	.	.	.	.	.	.	16dd\	.
16cc#/	.	.	.	.	.	.	.	.	.	.	16cc#\	.
16dd/JJ	.	.	.	.	.	.	.	.	.	.	16dd\JJ	.
16cc#X/LL	8E\L	.	.	.	.	.	.	.	8a\	a-	16cc#X\LL	.
16dd/	.	.	.	.	.	.	.	.	.	.	16dd\	.
16cc#/	8E\J	.	.	.	.	.	.	.	8a\	-do-	16cc#\	.
16dd/JJ	.	.	.	.	.	.	.	.	.	.	16dd\JJ	.
=23	=23	=23	=23	=23	=23	=23	=23	=23	=23	=23	=23	=23
!LO:PB:g=original	!	!	!	!	!LO:SIC:s:o=:v:brak kreski taktowej	!	!	!	!	!	!	!
16b/LL	16g\LL	.	16r	16r	1r	.	2r	.	16g\LL	-ra-	16b\LL	.
16cc#X/	16a\	.	16dd\LL	16dd\LL	.	.	.	.	16a\	.	16cc#X\	.
16b/	16g\	.	16dd\	16dd\	.	.	.	.	16g\	.	16b\	.
16cc#/JJ	16a\JJ	.	16dd\JJ	16dd\JJ	.	.	.	.	16a\JJ	.	16cc#\JJ	.
!	!	!	!LO:TX:a:t=P:problem=mixedbeam	!LO:TX:a:t=P:problem=mixedbeam	!	!	!	!	!	!	!	!
16b/LL	16g\LL	.	16gg\LL	16gg\LL	.	.	.	.	16g\LL	.	16b\LL	.
16cc#X/	16a\	.	16g\	16g/	.	.	.	.	16a\	.	16cc#X\	.
16b/	16g\	.	16g\	16g/	.	.	.	.	16g\	.	16bn\	.
!	!	!	!LO:TX:a:t=P:problem=mixedbeam	!LO:TX:a:t=P:problem=mixedbeam	!	!	!	!	!	!	!	!
16cc#/JJ	16a\JJ	.	16gg\JJ	16gg\JJ	.	.	.	.	16a\JJ	.	16cc#\JJ	.
!	!	!	!	!LO:SIC:o=:v:znak łamania taktu	!	!	!	!	!LO:SIC:o=:v:znak łamania taktu	!	!LO:SIC:o=:v:znak łamania taktu	!
!	!	!	!	!LO:PB:g=original	!	!	!	!	!LO:PB:g=original	!	!LO:PB:g=original	!
16a/LL	16f#\LL	.	16ee\LL	16ee\LL	.	.	4r	.	16f#\LL	.	16a\LL	.
16b/	16g\	.	16ee\	16ee\	.	.	.	.	16g\	.	16b\	.
16a/	16f#\	.	16ee\	16ee\	.	.	.	.	16f#\	.	16a\	.
16b/JJ	16g\JJ	.	16ee\JJ	16ee\JJ	.	.	.	.	16g\JJ	.	16b\JJ	.
*clefC4	*	*	*	*	*	*	*	*	*	*	*	*
!	!	!	!LO:TX:a:t=P:problem=mixedbeam	!LO:TX:a:t=P:problem=mixedbeam	!	!	!	!	!	!	!	!
8d\L	4ryy	.	16ff#\LL	16aa\LL	.	.	8d\	a-	16f#\LL	.	16a\LL	.
.	.	.	16f#/	16a/	.	.	.	.	16g\	.	16b\	.
8d\J	.	.	16f#/	16a/	.	.	8d\	-do-	16f#\	.	16a\	.
!	!	!	!LO:TX:a:t=P:problem=mixedbeam	!LO:TX:a:t=P:problem=mixedbeam	!	!	!	!	!	!	!	!
.	.	.	16ff#\JJ	16aa\JJ	.	.	.	.	16g\JJ	.	16b\JJ	.
*v	*v	*	*	*	*	*	*	*	*	*	*	*
=24	=24	=24	=24	=24	=24	=24	=24	=24	=24	=24	=24
!	!	!	!	!LO:SIC:s:o=:v:brak kreski taktowej	!	!	!	!	!	!	!
!	!	!LO:TX:a:t=P:problem=mixedbeam	!LO:TX:a:t=P:problem=mixedbeam	!	!	!	!	!	!	!	!
16c#X\LL	6	16aa\LL	16aa\LL	4r	.	16c#X\LL	-ra-	16e\LL	.	8a\	.
16d\	.	16a/	16a/	.	.	16d\	.	16f#\	.	.	.
16c#X\	.	16a/	16a/	.	.	16c#\	.	16e\	.	16a\	-bi-
16d\JJ	.	16a/JJ	16a/JJ	.	.	16d\JJ	.	16f#\JJ	.	16a,<\	-mus
*clefF4	*	*	*	*	*	*	*	*	*	*	*
!	!	!LO:SIC:o=:v:znak łamania taktu	!	!	!	!	!	!	!	!	!
!	!	!LO:PB:g=original	!	!	!	!	!	!	!	!	!
8A\L	#	16a/LL	16a/LL	8A\	a-	16c#X\LL	.	16e\LL	.	8cc#X\	a-
.	.	16a/	16a/	.	.	16d\	.	16f#\	.	.	.
8A\J	.	16a/	16a/	8A\	-do-	16c#\	.	16e\	.	8cc#\	-do-
.	.	16a/JJ	16a/JJ	.	.	16d\JJ	.	16f#\JJ	.	.	.
16G\LL	5	16dd\LL	16dd\LL	16G\LL	-ra-	16B\LL	.	8.d\	.	8.dd\	-ra-
16A\	_	16dd\	16dd\	16A\	.	16c#X\	.	.	.	.	.
16G\	.	16dd\	16dd\	16G\	.	16B\	.	.	.	.	.
16A\JJ	.	16dd\JJ	16dd\JJ	16A\JJ	.	16c#\JJ	.	16d\	-bi-	16dd\	-bi-
16G\LL	6	16ee\LL	16ee\LL	16G\LL	.	16B\LL	.	8e\	-mus	8g,</	-mus
16A\	_	16ee\	16ee\	16A\	.	16c#X\	.	.	.	.	.
16G\	.	16ee\	16ee\	16G\	.	16B\	.	8e\	in	8g/	in
16A\JJ	x	16ee\JJ	16ee\JJ	16A\JJ	.	16c#\JJ	.	.	.	.	.
=25	=25	=25	=25	=25	=25	=25	=25	=25	=25	=25	=25
!LO:TX:a:t=P:problem=mixedbeam x 2	!	!	!	!	!	!	!	!	!	!	!
8F#\L	7	16ee\LL	16ee\LL	16F#\LL	.	8A/	.	4e\	loco	4cc#X\	loco
.	.	16ee\	16ee\	16G\	.	.	.	.	.	.	.
8F#\	.	16ee\	16ee\	16F#\	.	16A/	-bi-	.	.	.	.
.	.	16ee\JJ	16ee\JJ	16G\JJ	.	16A/	-mus	.	.	.	.
!	!	!	!	!	!	!LO:SIC:o=:v:znak łamania taktu	!	!	!	!	!
!	!	!	!	!	!	!LO:PB:g=original	!	!	!	!	!
8FF#/	6_	16dd\LL	16dd\LL	16F#\LL	.	8d\	a-	8d,<\	.	8f#,</	.
.	.	16dd\	16dd\	16G\	.	.	.	.	.	.	.
8F#\J	.	16dd\	16dd\	16F#\	.	8d\	-do-	16d\	a-	16f#/	a-
.	.	16dd\JJ	16dd\JJ	16G\JJ	.	.	.	16d\	-do-	16f#/	-do-
8E\L	7_	16dd\LL	16dd\LL	16E\LL	.	8.G/	-ra-	8.d\	-ra-	8.b\	-ra-
.	.	16dd\	16dd\	16F#\	.	.	.	.	.	.	.
8E\	.	16dd\	16dd\	16E\	.	.	.	.	.	.	.
.	.	16dd\JJ	16dd\JJ	16F#\JJ	.	16G/	-bi-	16d\	-bi-	16b\	-bi-
8EE/	6\	16cc#X\LL	16cc#X\LL	16E\LL	.	8c#X,<\	-mus	8e,<\	-mus	8e,</	-mus
.	.	16cc#\	16cc#\	16F#\	.	.	.	.	.	.	.
*	*	*	*	*	*	*	*ij	*	*ij	*	*ij
8E/J	.	16cc#\	16cc#\	16E\	.	16e\	a-	16e\LL	a-	16cc#X\	a-
.	.	16cc#\JJ	16cc#\JJ	16F#\JJ	.	16e\	-do-	16e\JJ	-do-	16cc#\	-do-
=26	=26	=26	=26	=26	=26	=26	=26	=26	=26	=26	=26
!LO:PB:g=original	!	!	!	!	!	!	!	!	!	!	!
8.D\L	.	16dd\LL	16dd\LL	8.D/	.	8.f#\	-ra-	8.a\	-ra-	8.dd\	-ra-
.	.	16aa\	16aa\	.	.	.	.	.	.	.	.
.	.	16aa\	16aa\	.	.	.	.	.	.	.	.
16E\Jk	6\	16aa\JJ	16aa\JJ	16E\	-bi-	16e\	-bi-	16g\	-bi-	16cc#X\	-bi-
!	!	!	!LO:SIC:o=:v:znak łamania taktu	!	!	!	!	!	!	!	!
!	!	!	!LO:PB:g=original	!	!	!	!	!	!	!	!
8F#\L	6	16aa\LL	16aa\LL	8F#,<\	-mus,	8d\	-mus	8f#\	-mus	8dd,<\	-mus
*	*	*	*	*	*	*	*Xij	*	*Xij	*	*Xij
.	.	16aa\	16aa\	.	.	.	.	.	.	.	.
8D\J	.	16aa\	16aa\	8D/	in	8A/	in	8f#,<\	in	(16ee\LL	in
.	.	16aa\JJ	16aa\JJ	.	.	.	.	.	.	16dd\JJ)	.
!	!	!LO:TX:a:t=P:problem=mixedbeam	!LO:TX:a:t=P:problem=mixedbeam	!	!	!	!	!LO:SIC:o=:v:znak łamania taktu	!	!	!
!	!	!	!	!LO:SIC:o=:v:znak łamania taktu	!	!	!	!LO:PB:g=original	!	!	!
!	!	!	!	!LO:PB:g=origiinal	!	!	!	!	!	!	!
8A\L	#	16aa/LL	16aa\LL	8A\	lo-	8A/	loco	8e\	loco	8cc#X\	lo-
.	.	16a\	16a/	.	.	.	.	.	.	.	.
8A\	.	16a\	16a/	8A\	-co	8A,</	.	8e\	.	8cc#\	-co
.	.	16a\JJ	16a/JJ	.	.	.	.	.	.	.	.
!	!	!	!	!	!	!	!	!	!	!LO:SIC:o=:v:znak łamania taktu	!
!	!	!	!	!	!	!	!	!	!	!LO:PB:g=oriignal	!
8F#\	6	16a/LL	16a/LL	8F#\	ubi	8A/	u-	8f#\	u-	8dd\	u-
.	.	16a/	16a/	.	.	.	.	.	.	.	.
8F#\J	.	16a/	16a/	16F#\	.	16A/	-bi	16f#\	-bi	16dd\	-bi
.	.	16a/JJ	16a/JJ	16F#\	ste-	16A/	ste-	16f#\	ste-	16dd\	ste-
=27	=27	=27	=27	=27	=27	=27	=27	=27	=27	=27	=27
!	!	!LO:PB:g=original	!	!	!	!	!	!	!	!	!
!	!	!LO:TX:a:t=P:problem=mixedbeam	!LO:TX:a:t=P:problem=mixedbeam	!	!	!	!	!	!	!	!
4.B\	3	16f#/LL	16f#/LL	4B\	-te-	4d\	-te-	4f#\	-te-	4b\	-te-
.	.	16ff#\	16ff#\	.	.	.	.	.	.	.	.
.	.	16ff#\	16ff#\	.	.	.	.	.	.	.	.
.	.	16ff#\JJ	16ff#\JJ	.	.	.	.	.	.	.	.
.	.	16ff#\LL	16ff#\LL	8B\	-runt	8d\	-runt	8f#,<\	-runt	8b\	-runt
.	.	16ff#\	16ff#\	.	.	.	.	.	.	.	.
8F#\	6	16ff#\	16ff#\	(8F#\L	pe-	(8A\L	pe-	(8f#\L	pe-	8dd\	pe-
.	.	16ff#\JJ	16ff#\JJ	.	.	.	.	.	.	.	.
8G\L	6_ 5_	16bb\LL	16bb\LL	8G\J)	.	8B\J)	.	8d\J)	.	(8b\L	-des
.	.	16gg\	16gg\	.	.	.	.	.	.	.	.
8E\	.	16gg\	16gg\	8E\	-des	8B\	-des	8g\	-des	8dd\J)	.
.	.	16gg\JJ	16gg\JJ	.	.	.	.	.	.	.	.
!	!	!	!	!LO:TX:a:t=P:problem=mixedbeam	!	!	!	!	!	!	!
8A\	6 4	16ee\LL	16ee\LL	8A/L	e-	4A/	e-	4e\	.	(8dd\L	e-
.	.	16ee\	16cc\	.	.	.	.	.	.	.	.
!LO:TX:a:t=P:problem=mixedbeam	!	!	!	!	!	!	!	!	!	!	!
8AA\J	#	16ee\	16cc\	8AA\J	.	.	.	.	.	8cc#X\J)	.
.	.	16ee\JJ	16cc\JJ	.	.	.	.	.	.	.	.
=28	=28	=28	=28	=28	=28	=28	=28	=28	=28	=28	=28
!	!	!	!LO:TX:a:t=Solo	!	!	!	!	!	!	!	!
4D/	.	4ff#\	8dd\L	4D/	-jus	4A/	-jus-	4f#\	ejus-	4dd\	-jus
.	.	.	8dd\J	.	.	.	.	.	.	.	.
4r	.	4r	8dd\L	4r	.	4r	.	4r	.	4r	.
.	.	.	16ff#\L	.	.	.	.	.	.	.	.
.	.	.	16gg\JJ	.	.	.	.	.	.	.	.
!LO:TX:a:t=Solo	!	!LO:TX:a:t=S.	!LO:TX:a:t=P:problem=mixedbeam	!	!	!	!	!	!	!	!
2r	.	8a/L	8aa\L	2r	.	2r	.	2r	.	2r	.
.	.	8a/J	8a/J	.	.	.	.	.	.	.	.
.	.	8a/L	8r	.	.	.	.	.	.	.	.
.	.	16b/L	8aa\	.	.	.	.	.	.	.	.
.	.	16cc#X/JJ	.	.	.	.	.	.	.	.	.
=29	=29	=29	=29	=29	=29	=29	=29	=29	=29	=29	=29
!	!	!	!	!	!	!LO:PB:g=original	!	!	!	!	!
!	!	!LO:TX:a:t=P:problem=mixedbeam	!	!	!	!	!	!	!	!	!
8D/L	.	8dd\L	16ff#\LL	00r	.	00r	.	00r	.	0r	.
.	.	.	16gg\	.	.	.	.	.	.	.	.
8D/J	.	8d/J	16ff#\	.	.	.	.	.	.	.	.
.	.	.	16ee\JJ	.	.	.	.	.	.	.	.
8D\L	.	8r	16dd\LL	.	.	.	.	.	.	.	.
.	.	.	16ff#\	.	.	.	.	.	.	.	.
16F#\L	6	8b/	16ee\	.	.	.	.	.	.	.	.
16G\JJ	5	.	16dd\JJ	.	.	.	.	.	.	.	.
!LO:TX:a:t=P:problem=mixedbeam	!	!	!LO:SIC:o=:v:znak łamania taktu	!	!	!	!	!	!	!	!
!	!	!	!LO:PB:g=original	!	!	!	!	!	!	!	!
8A\L	#	16a/LL	16cc#X\LL	.	.	.	.	.	.	.	.
.	.	16cc#X/	16aa\	.	.	.	.	.	.	.	.
8AA/J	.	16b/	16gg\	.	.	.	.	.	.	.	.
.	.	16cc#/JJ	16aa\JJ	.	.	.	.	.	.	.	.
!	!	!LO:TX:a:t=P:problem=mixedbeam	!LO:TX:a:t=P:problem=mixedbeam	!	!	!	!	!	!	!	!
4r	.	16e/LL	16a/LL	.	.	.	.	.	.	.	.
.	.	16ee\	16gg\	.	.	.	.	.	.	.	.
.	.	16dd\	16ff#\	.	.	.	.	.	.	.	.
.	.	16ee\JJ	16gg\JJ	.	.	.	.	.	.	.	.
=30	=30	=30	=30	=30	=30	=30	=30	=30	=30	=30	=30
16r	.	16a/LL	16cc#X\LL	.	.	.	.	.	.	.	.
16A\LL	5_ #_	16a/	16cc#\	.	.	.	.	.	.	.	.
16G\	.	16a/	16cc#\	.	.	.	.	.	.	.	.
16A\JJ	.	16a/JJ	16cc#\JJ	.	.	.	.	.	.	.	.
!LO:TX:a:t=P:problem=mixedbeam	!	!	!	!	!	!	!	!	!	!	!
16AA/LL	.	16a/LL	16cc#\LL	.	.	.	.	.	.	.	.
16G\	.	16a/	16cc#\	.	.	.	.	.	.	.	.
16F#\	.	16a/	16cc#\	.	.	.	.	.	.	.	.
16G\JJ	.	16a/JJ	16cc#\JJ	.	.	.	.	.	.	.	.
!	!	!LO:SIC:o=:v:znak łamania taktu	!	!	!	!	!	!	!	!	!
!	!	!LO:PB:g=original	!	!	!	!	!	!	!	!	!
!	!	!LO:TX:a:t=P:problem=mixedbeam	!	!	!	!	!	!	!	!	!
16C#X/LL	5_	16a/LL	16cc#\LL	.	.	.	.	.	.	.	.
16C#/	.	16ee\	16gg\	.	.	.	.	.	.	.	.
16C#/	.	16dd\	16ff#\	.	.	.	.	.	.	.	.
16C#/JJ	.	16ee\JJ	16gg\JJ	.	.	.	.	.	.	.	.
!LO:SIC:o=:v:znak łamania taktu	!	!	!LO:TX:a:t=P:problem=mixedbeam	!	!	!	!	!	!	!	!
!LO:PB:g=original	!	!	!	!	!	!	!	!	!	!	!
16C#X/LL	5_	16cc#X\LL	16a/LL	.	.	.	.	.	.	.	.
16C#/	.	16ee\	16gg\	.	.	.	.	.	.	.	.
16C#/	.	16dd\	16ff#\	.	.	.	.	.	.	.	.
16C#/JJ	x	16ee\JJ	16gg\JJ	.	.	.	.	.	.	.	.
=31	=31	=31	=31	=31	=31	=31	=31	=31	=31	=31	=31
!LO:TX:a:t=P:problem=mixedbeam	!	!	!	!	!	!	!	!	!	!	!
8D\L	.	8dd\L	8ff#\L	.	.	.	.	.	.	2r	.
8G\	6	8b\J	16ee\L	.	.	.	.	.	.	.	.
.	5	.	16dd\JJ	.	.	.	.	.	.	.	.
8A\	#	8a/L	4cc#Xt\	.	.	.	.	.	.	.	.
8AA/J	.	8e/J	.	.	.	.	.	.	.	.	.
!	!	!	!LO:TX:b:t=c	!	!	!	!	!	!	!LO:TX:a:t=S.	!
4D/	.	4f#/	4dd\	.	.	.	.	.	.	8dd\	Sur-
.	.	.	.	.	.	.	.	.	.	8dd\	-ge
*	*	*	*	*	*	*	*	*	*	*	*ij
4Cn/	4 2	4r	4r	.	.	.	.	.	.	8dd\	sur-
.	.	.	.	.	.	.	.	.	.	(16ee\LL	-ge
*	*	*	*	*	*	*	*	*	*	*	*Xij
.	.	.	.	.	.	.	.	.	.	16ff#\JJ)	.
=32	=32	=32	=32	=32	=32	=32	=32	=32	=32	=32	=32
!	!	!	!LO:SIC:s:o=:v:brak kreski taktowej	!	!	!	!	!	!	!	!
4BB/	6	00r	00r	.	.	.	.	.	.	8.gg\	Do-
.	.	.	.	.	.	.	.	.	.	16gg\	-mi-
8AA/L	7	.	.	.	.	.	.	.	.	8gg\	-ne
8D/J	7	.	.	.	.	.	.	.	.	8dd\	in
8G\L	.	.	.	.	.	.	.	.	.	8b\	re-
8C\	6	.	.	.	.	.	.	.	.	16b\	-qui-
.	.	.	.	.	.	.	.	.	.	16a\	-em
8D\	6 4	.	.	.	.	.	.	.	.	4a\	tu-
!LO:TX:a:t=P:problem=mixedbeam	!	!	!	!	!	!	!	!	!	!	!
8DD/J	3	.	.	.	.	.	.	.	.	.	.
=33	=33	=33	=33	=33	=33	=33	=33	=33	=33	=33	=33
!LO:TX:a:t=P:problem=mixedbeam	!	!	!	!	!	!LO:TX:a:t=S.	!	!	!	!LO:SIC:o=:v:znak łamania taktu	!
!	!	!	!	!	!	!LO:SIC:o=:v:znak łamania taktu	!	!	!	!LO:PB:g=original	!
8GG/L	.	.	.	00r	.	8d\	Sa-	0r	.	4g/	-am
8G\	.	.	.	.	.	8d\	-cer-	.	.	.	.
8F#\	6	.	.	.	.	8d\	-do-	.	.	8dd\	tu
8D\J	.	.	.	.	.	8d\	-tes	.	.	8dd\	et
8G\L	.	.	.	.	.	(8.d\L	tu-	.	.	(8b\L	ar-
8A\	.	.	.	.	.	.	.	.	.	16a\L	.
.	.	.	.	.	.	16c\Jk)	.	.	.	16b\JJ)	.
8B\	.	.	.	.	.	4B\	-i	.	.	8g,<\	-ca
8G\J	.	.	.	.	.	.	.	.	.	8dd\	san-
=34	=34	=34	=34	=34	=34	=34	=34	=34	=34	=34	=34
!!pagebreak:original
4.C/	.	.	.	.	.	(8c\L	in-	.	.	8ee\	-cti-
.	.	.	.	.	.	8B\J)	.	.	.	8dd\	-fi-
.	.	.	.	.	.	(8A/L	-du-	.	.	8cc\	-ca-
8G\	.	.	.	.	.	8G/J)	.	.	.	8b\	-ti-
8d\L	.	.	.	.	.	8F#/	-a-	.	.	8a\	-o-
8G\J	.	.	.	.	.	16G/	-ntur	.	.	(16b\LL	-nis
.	.	.	.	.	.	16A/	ju-	.	.	16g\JJ)	.
4D/	4 3	.	.	.	.	8.AT/	-sty-	.	.	(8g/L	tu-
.	.	.	.	.	.	.	.	.	.	8f#/J)	.
.	.	.	.	.	.	16G/	-ti-	.	.	.	.
=35	=35	=35	=35	=35	=35	=35	=35	=35	=35	=35	=35
!	!	!	!	!	!	!	!	!LO:SIC:s:o=:v:brak kreski taktowej	!	!	!
!	!	!	!	!	!	!	!	!LO:TX:a:t=Solo	!	!	!
4G\	.	.	.	.	.	8G,</	-am	4r	.	4g/	-a
.	.	.	.	.	.	8B\	et	.	.	.	.
8r	.	.	.	.	.	(16e\LL	san-	8g\	-Pro-	4r	.
.	.	.	.	.	.	16d\JJ)	.	.	.	.	.
8C/	.	.	.	.	.	(16c\LL	-cti	8g\	-pter	.	.
.	.	.	.	.	.	16B\JJ)	.	.	.	.	.
!LO:SIC:o=:v:znak łamania taktu	!	!	!	!	!	!	!	!	!	!	!
!LO:PB:g=original	!	!	!	!	!	!	!	!	!	!	!
8F#X\L	.	.	.	.	.	4A/	tu-	8f#\	Da-	2r	.
8D\J	.	.	.	.	.	.	.	8f#\	-vid	.	.
8BB/L	.	.	.	.	.	(16d\LL	-i	(16f#\LL	Ser-	.	.
.	.	.	.	.	.	16c\JJ)	.	16g\JJ)	.	.	.
8D/J	.	.	.	.	.	(16B\LL	e-	(16e\LL	-vum	.	.
.	.	.	.	.	.	16A\JJ)	.	16f#\JJ)	.	.	.
=36	=36	=36	=36	=36	=36	=36	=36	=36	=36	=36	=36
!	!	!	!	!	!	!LO:PB:g=original	!	!	!	!	!
8E\L	.	00r	00r	.	.	8G/	-xul-	8g\	tu-	00r	.
8C\J	.	.	.	.	.	8G/	-tent	8g\	-um	.	.
!LO:TX:a:t=P:problem=mixedbeam	!	!	!	!	!	!	!	!	!	!	!
8AA/L	.	.	.	.	.	4r	.	8a\	non	.	.
!	!	!	!	!	!	!	!	!LO:SIC:o=:v:znak łamania taktu	!	!	!
!	!	!	!	!	!	!	!	!LO:PB:g=original	!	!	!
8A\J	.	.	.	.	.	.	.	8a\	a-	.	.
4D#X/	6 5	.	.	.	.	2r	.	8.b\	-ver-	.	.
.	.	.	.	.	.	.	.	16b\	-tas	.	.
8r	.	.	.	.	.	.	.	(16b\LL	fa-	.	.
.	.	.	.	.	.	.	.	16a\JJ)	.	.	.
8BB/	.	.	.	.	.	.	.	16g\	-ci-	.	.
.	.	.	.	.	.	.	.	16f#\	-em	.	.
=37	=37	=37	=37	=37	=37	=37	=37	=37	=37	=37	=37
8C/L	.	.	.	0r	.	2r	.	(16e\LL	Chri-	.	.
.	.	.	.	.	.	.	.	16f#\JJ)	.	.	.
8AA/	.	.	.	.	.	.	.	(16g\LL	-sti	.	.
.	.	.	.	.	.	.	.	16a\JJ)	.	.	.
8D/	4	.	.	.	.	.	.	(8g\L	tu-	.	.
8DD/J	3	.	.	.	.	.	.	8f#\J)	.	.	.
!	!	!	!	!	!	!LO:TX:a:t=Solo	!	!	!	!	!
8GG/	.	.	.	.	.	8r	.	8g\	-i	.	.
*clefC4	*	*	*	*	*	*	*	*	*	*	*
!LO:TX:b:t=Tutti	!	!	!	!	!	!	!	!	!	!	!
!LO:SIC:o=:v:nieczytelne cyfrowanie	!	!	!	!	!	!	!	!	!	!	!
8G/L	.	.	.	.	.	8G/	Jura-	8r	.	.	.
8G/	.	.	.	.	.	8G/	.	8r	.	.	.
8G/J	.	.	.	.	.	8G/	-vit	8r	.	.	.
=38	=38	=38	=38	=38	=38	=38	=38	=38	=38	=38	=38
8c\L	.	.	.	.	.	8c\	Do-	00r	.	.	.
16c\L	.	.	.	.	.	16c\	-mi-	.	.	.	.
16B\JJ	.	.	.	.	.	16B\	-nus	.	.	.	.
8A\L	.	.	.	.	.	8A/	Da-	.	.	.	.
8d\J	.	.	.	.	.	8d\	-vid	.	.	.	.
8B\L	.	.	.	.	.	8B\	ve-	.	.	.	.
8G\J	.	.	.	.	.	8G/	-ri-	.	.	.	.
4e\	.	.	.	.	.	4e\	-ta-	.	.	.	.
=39	=39	=39	=39	=39	=39	=39	=39	=39	=39	=39	=39
!	!	!	!	!LO:SIC:s:o=:v:brak kreski taktowej	!	!	!	!	!	!	!
8d\L	.	.	.	8r	.	8d,<\	-tem,	.	.	.	.
*clefF4	*	*	*	*	*	*	*	*	*	*	*
8D\	.	.	.	8D/	Si	8A/	et	.	.	.	.
8D\	.	.	.	8D/	cu-	8d\	non	.	.	.	.
8D\J	.	.	.	8D/	-sto-	8d\	fru-	.	.	.	.
8G\L	.	.	.	8G\	-die-	8d\	-stra-	.	.	.	.
16G\L	.	.	.	16G\	.	16d\	-bi-	.	.	.	.
16F#\JJ	.	.	.	16F#\	-rint	16d\	-tur	.	.	.	.
!	!	!	!	!	!	!LO:SIC:o=:v:znak łamania taktu	!	!	!	!	!
!	!	!	!	!	!	!LO:PB:g=original	!	!	!	!	!
8E\L	7	.	.	8E\	fi-	(8d\L	e-	.	.	.	.
8A\J	#	.	.	16E\	-lij	8c#X\J)	.	.	.	.	.
.	.	.	.	16A\	.	.	.	.	.	.	.
=40	=40	=40	=40	=40	=40	=40	=40	=40	=40	=40	=40
!LO:LB:g=original	!	!	!	!LO:PB:g=original	!	!	!	!	!	!	!
!	!	!	!LO:SIC:s:o=:v:brak kreski taktowej	!	!	!	!	!	!	!LO:TX:a:t=T.	!
8F#\L	6	0r	2r	8F#\	tu-	8d,<\	-am,	.	.	2r	.
8D\J	.	.	.	8D/	-i	(16A\LL	de	.	.	.	.
.	.	.	.	.	.	16B\JJ)	.	.	.	.	.
4A\	7	.	.	8.A\	te-	8.cn\	fru-	.	.	.	.
.	6	.	.	16A\	-sta-	16c\	-ctu	.	.	.	.
!	!	!	!LO:TX:a:t=Tutti	!	!	!	!	!	!	!	!
8G\L	.	.	8r	8G\	-men-	8B,<\	ven-	.	.	8r	.
8B\	6	.	8g/L	8G\	-tum	8d\	-tris	.	.	8g/	Et
8G\	.	.	8g/	(8G\L	me-	8B\	tu-	.	.	8g/	fi-
8B\J	6	.	8g/J	8B\J)	.	8G/	-i	.	.	8g/	-lij
=41	=41	=41	=41	=41	=41	=41	=41	=41	=41	=41	=41
!LO:TX:a:t=P:problem=mixedbeam	!	!	!	!	!	!	!	!	!	!	!
8c\L	.	.	8cc\L	8c,<\	-um,	8.e\	po-	.	.	8cc\	.
8C/J	.	.	16cc\L	8C/	et	.	.	.	.	(16cc\LL	e-
.	.	.	16b\JJ	.	.	16e\	-nam	.	.	16b\JJ)	.
!	!	!	!LO:SIC:o=:v:znak łamania taktu	!	!	!	!	!	!	!	!
!	!	!	!LO:PB:g=original	!	!	!	!	!	!	!	!
8D/L	.	.	8a\L	8D/	te-	8A/	su-	.	.	8a\	-o-
!	!	!	!LO:TX:a:t=P:problem=mixedbeam	!	!	!	!	!	!	!	!
8DD/J	.	.	8dd\J	8D/	-sti-	(16B\LL	-per	.	.	16dd\	-rum
.	.	.	.	.	.	16c\JJ)	.	.	.	16dd\	us-
!	!	!	!	!	!	!	!	!	!	!LO:SIC:o=:v:znak łamania taktu	!
!	!	!	!	!	!	!	!	!	!	!LO:LB:g=original	!
!LO:TX:a:t=P:problem=mixedbeam	!	!	!	!	!	!	!	!	!	!	!
8GG/L	.	.	8b/L	8G\	-mo-	8d\	se-	.	.	8b\	-que
16G\L	.	.	8g/J	16G\	-nia	8d\	-dem	.	.	8g/	in
16F#\JJ	.	.	.	16F#\	.	.	.	.	.	.	.
8E\L	7	.	4ee\	8E\	mea	(8d\L	tu-	.	.	8.ee\	Sa-
8A\J	#	.	.	8A\	.	8c#X\J)	.	.	.	.	.
.	.	.	.	.	.	.	.	.	.	16ee\	-cu-
=42	=42	=42	=42	=42	=42	=42	=42	=42	=42	=42	=42
!	!	!LO:SIC:s:o=:v:brak kreski taktowej	!	!	!	!	!	!LO:SIC:s:o=:v:brak kreski taktowej	!	!	!
8D\L	.	8r	8dd\L	8D,</	haec,	4d\	-am	8r	.	8dd,<\	-lum
!	!	!LO:TX:a:t=T.	!LO:TX:b:t=A	!	!	!	!	!LO:TX:a:t=Tutti	!	!	!
8D\	.	8d/L	8a\J	8D\L	quae	.	.	4d\	quo-	8a\	se-
8E\	.	8d/	8dd\L	8E\	.	4r	.	.	.	8dd\	-de-
8F#\J	.	8d/J	8dd\J	8F#\J	.	.	.	8d\	-ni-	8dd\	-bunt
8G\L	.	8g/L	8dd\L	(8G\L	do-	2r	.	8g\	-am	8dd\	Su-
8D\J	.	16g/L	8dd\	8D\J)	.	.	.	(16g\LL	e-	8dd\	-per
.	.	16f#/JJ	.	.	.	.	.	16f#\JJ)	.	.	.
4E\	7	8d/L	8dd\	4E\	-ce-	.	.	8e\	-le-	8dd\	Se-
.	6\	8a/J	8cc#X\J	.	.	.	.	8a\	-git	8cc#X\	-dem
=43	=43	=43	=43	=43	=43	=43	=43	=43	=43	=43	=43
!	!	!	!	!LO:PB:g=original	!	!LO:LB:g=original	!	!	!	!	!
!LO:TX:a:t=P:problem=mixedbeam	!	!	!	!LO:TX:a:t=P:problem=mixedbeam	!	!	!	!	!	!	!
*	*	*	*	*	*	*	*	*	*	*	*ij
8D/L	.	8f#/L	8dd\L	(8D/L	-bo	2r	.	8f#\	Do-	8dd\	Se-
!LO:TX:a:t=P:problem=mixedbeam	!	!	!	!	!	!	!	!	!	!	!
8G\J	.	8d/J	8dd\	8G\J)	.	.	.	16e\	-mi-	8dd\	-dem
*	*	*	*	*	*	*	*	*	*	*	*Xij
.	.	.	.	.	.	.	.	16d\	-n(us)	.	.
8C/L	6 5	4a/	8ee\	(8C/L	e-	.	.	4a\	Si-	(8ee\L	tu-
8D/J	.	.	8dd\J	8D/J)	.	.	.	.	.	8dd\J)	.
!LO:TX:a:t=P:problem=mixedbeam	!	!	!	!	!	!	!	!	!	!	!
8GG/L	.	8g/L	8dd\L	8GG,</	-os,	8r	.	8g,<\	-on	8dd,<\	-am
8E\	n	8g/	8ee\	8E\	hac	8B\	haec	8g\	e-	8ee\	haec
!	!	!	!	!	!	!	!	!LO:SIC:o=:v:znak łamania taktu	!	!	!
!	!	!	!	!	!	!	!	!LO:PB:g=original	!	!	!
8E\	.	8g/	8ee\	8E\	re-	8B\	re-	8g\	-le-	8ee\	re-
8E\J	.	8g/J	8ee\J	8E\	-quies	8B\	-qui-	8g\	-git	8ee\	-qui-
=44	=44	=44	=44	=44	=44	=44	=44	=44	=44	=44	=44
!LO:PB:g=original	!	!	!	!	!	!	!	!	!	!	!
8A\L	3	8e/L	8cc\L	8A\	.	8A/	-es	8e\	e-	8cc\	-es
!	!	!	!	!	!	!	!	!	!	!u	!
16A\L	.	16e/L	8cc\	(16A\LL	me-	8c\	me-	16e\	-am	8cc\	me-
16G\JJ	.	16e/JJ	.	16G\JJ)	.	.	.	16e\	in	.	.
!	!	!	!	!	!	!	!	!	!	!LO:SIC:o=:v:znak łamania takt	!
!	!	!	!	!	!	!	!	!	!	!LO:PB:g=original	!
8F#\L	7	8a/L	8cc\	8F#\	-a	8e\	-a	8a\	ha-	8cc\	-a
8B\J	#	8f#/J	8b\J	8B\	in	8d#X\	in	8f#\	-bi-	8b\	in
8G\L	6	8g/L	8ee\L	8G\	sae-	8e\	Sae-	8g\	-ta-	8ee\	sae-
8E\J	.	8a/J	16ee\L	16E\	-cu-	16B\	-cu-	8g\	-ti-	16ee\	-cu-
.	.	.	16ee\JJ	16E\	-lum	16B\	-lum	.	.	16ee\	-lum
4c\	7	8.g/L	8.ee\L	8.c\	sae-	8.B\	Sae-	8.e\	-o-	8.ee\	sae-
.	6	16a/Jk	16ee\Jk	16c\	-cu-	16A/	-cu-	16e\	-nem	16ee\	-cu-
=45	=45	=45	=45	=45	=45	=45	=45	=45	=45	=45	=45
8B\L	#	4f#X/	4dd#X\	8B,<\	-li.	8B,<\	-li,	8f#\	si-	8dd#X,<\	-li
8B\	_	.	.	8B\	hic	8d#X\	hic	16f#,<\	-bi,	8ff#\	hic
.	.	.	.	.	.	.	.	16b\	hic	.	.
8B\	.	4r	4r	8B\	ha-	(16d#\LL	ha-	8b\	ha-	(16ff#\LL	ha-
.	.	.	.	.	.	16B\JJ)	.	.	.	16dd#X\JJ)	.
8B\J	.	.	.	8B\	-bi-	(16B\LL	-bi-	(16f#\LL	-bi-	(16dd#\LL	-bi-
.	.	.	.	.	.	16d#X\JJ)	.	16g\JJ)	.	16b\JJ)	.
8B\L	7_ #_	16r	16r	8B\	-ta-	8f#\	-ta-	(16a\LL	-ta-	8a\	-ta-
.	.	16a/LL	16a/LL	.	.	.	.	16f#\JJ)	.	.	.
8D#X\J	.	16a/	16a/	8D#X/	-bo	8f#\	-bo	(16f#\LL	-bo	8a,<\	-bo
.	.	16a/JJ	16a/JJ	.	.	.	.	16d#X\JJ)	.	.	.
8B\L	.	16dd#X\LL	16dd#X\LL	8.D#/	quo-	8.B\	quo-	8.f#\	quo-	8.a\	quo-
.	.	16dd#\	16dd#\	.	.	.	.	.	.	.	.
8D#X\J	.	16ff#\	16ff#\	.	.	.	.	.	.	.	.
.	x	16ff#\JJ	16ff#\JJ	16D#/	-ni-	16A/	-ni-	16f#\	-ni-	16a\	-ni-
=46	=46	=46	=46	=46	=46	=46	=46	=46	=46	=46	=46
!	!	!	!LO:PB:g=original	!	!	!	!	!	!	!	!
!	!	!	!	!LO:LB:g=original	!	!LO:PB:g=original	!	!LO:LB:g=original	!	!	!
8E\L	.	8gg\L	8gg\L	8E\	-am	8G/	-am	8g\	-am	8ee\	-am
8F#\	6\	8dd#X\J	8dd#X\J	8F#\	e-	8A/	e-	8f#\	e-	8dd#X\	e-
8G\	6	8ee\L	8ee\L	8G\	-le-	8B\	-le-	8e\	-legi	8ee\	-le-
8E\J	.	8ee\J	8gg\J	8E\	-gi	8B\	-gi	8g\	.	8ee\	-gi
4BB/	5 4	8ee\L	8.ff#\L	4BB/	ea-	4B\	ea-	4f#\	e-	(8ee\L	e-
.	x #	8dd#X\J	.	.	.	.	.	.	.	8dd#\J)	.
.	.	.	16ff#\Jk	.	.	.	.	.	.	.	.
!	!	!LO:TX:a:t=P:problem=mixedbeam	!	!	!	!	!	!	!	!	!
4E\	.	8ee\L	4gg\	4E\	-m	4B\	-m	4e\	-am	4ee\	-am
.	.	8e/J	.	.	.	.	.	.	.	.	.
=47	=47	=47	=47	=47	=47	=47	=47	=47	=47	=47	=47
!LO:TX:a:t=Solo	!	!	!	!	!	!	!	!	!	!	!
2r	.	8b\L	4r	1r	.	00r	.	00r	.	00r	.
.	.	8b\J	.	.	.	.	.	.	.	.	.
.	.	8b\L	8r	.	.	.	.	.	.	.	.
!	!	!	!LO:TX:b:t=Solo	!	!	!	!	!	!	!	!
.	.	16cc#X\L	8b/	.	.	.	.	.	.	.	.
.	.	16dd#X\JJ	.	.	.	.	.	.	.	.	.
!	!	!LO:TX:a:t=P:problem=mixedbeam	!	!	!	!	!	!	!	!	!
4r	.	8ee\L	8ee\L	.	.	.	.	.	.	.	.
.	.	8e/J	8ee\J	.	.	.	.	.	.	.	.
8r	.	8r	8ee\L	.	.	.	.	.	.	.	.
8E\	.	8ee\	16gg\L	.	.	.	.	.	.	.	.
.	.	.	16aa\JJ	.	.	.	.	.	.	.	.
=48	=48	=48	=48	=48	=48	=48	=48	=48	=48	=48	=48
!	!	!	!	!LO:TX:a:t=Soli	!	!	!	!	!	!	!
8B\L	#	8dd#X\L	8bb\L	8.B\	Vi-	.	.	.	.	.	.
!	!	!	!LO:TX:a:t=P:problem=mixedbeam	!	!	!	!	!	!	!	!
8B\J	.	8dd#\J	8b\J	.	.	.	.	.	.	.	.
.	.	.	.	16B\	-du-	.	.	.	.	.	.
!LO:SIC:o=:v:znak łamania taktu	!	!	!	!	!	!	!	!	!	!	!
!LO:PB:g=original	!	!	!	!	!	!	!	!	!	!	!
8B\L	#	8dd#\L	8r	4F#\	-am	.	.	.	.	.	.
16c#X\L	.	16ee\L	8bb\	.	.	.	.	.	.	.	.
16d#X\JJ	.	16ff#\JJ	.	.	.	.	.	.	.	.	.
8e\L	.	8ee\L	16gg\LL	8G\	e-	.	.	.	.	.	.
.	.	.	16aa\	.	.	.	.	.	.	.	.
8E\J	.	8b\J	16gg\	8E\	-jus	.	.	.	.	.	.
.	.	.	16ff#\JJ	.	.	.	.	.	.	.	.
8r	.	4cc\	16ee\LL	(16A\LL	be-	.	.	.	.	.	.
.	.	.	16gg\	16B\JJ)	.	.	.	.	.	.	.
8AA/	6 5	.	16ff#\	(16G\LL	-ne-	.	.	.	.	.	.
.	.	.	16ee\JJ	16A\JJ)	.	.	.	.	.	.	.
!	!	!LO:TX:b:t=Volti Subito	!	!	!	!	!	!	!	!	!
=49	=49	=49	=49	=49	=49	=49	=49	=49	=49	=49	=49
!	!	!LO:LB:g=original	!	!	!	!	!	!	!	!	!
4BB/	#	16b\LL	16dd#X\LL	8B\	-di-	.	.	.	.	.	.
.	.	16dd#X\	16bb\	.	.	.	.	.	.	.	.
.	.	16cc\	16aa\	8B,<\	-cens	.	.	.	.	.	.
.	.	16dd#\JJ	16bb\JJ	.	.	.	.	.	.	.	.
4r	.	16b\LL	16b\LL	8d#X\	be-	.	.	.	.	.	.
.	.	16ff#\	16aa\	.	.	.	.	.	.	.	.
.	.	16ee\	16gg\	8d#\	-ne-	.	.	.	.	.	.
.	.	16ff#\JJ	16aa\JJ	.	.	.	.	.	.	.	.
16r	.	16B/LL	16d#X/LL	8B\	-di-	.	.	.	.	.	.
16B\LL	5_ #_	16B/	16d#/	.	.	.	.	.	.	.	.
16A\	.	16B/	16d#/	8B\	-cam	.	.	.	.	.	.
16B\JJ	.	16B/JJ	16d#/JJ	.	.	.	.	.	.	.	.
!LO:TX:a:t=P:problem=mixedbeam	!	!	!	!LO:SIC:o=:v:znak łamania taktu	!	!	!	!	!	!	!
!	!	!	!	!LO:PB:g=original	!	!	!	!	!	!	!
16BB/LL	.	16B/LL	16d#/LL	(16B\LL	pau-	.	.	.	.	.	.
16A\	.	16B/	16d#/	16A\JJ)	.	.	.	.	.	.	.
16G\	.	16B/	16d#/	16G\	-pe-	.	.	.	.	.	.
16A\JJ	.	16B/JJ	16d#/JJ	16A\	-res	.	.	.	.	.	.
=50	=50	=50	=50	=50	=50	=50	=50	=50	=50	=50	=50
16D#X\LL	6_ 5_	16b\LL	16dd#X\LL	8B\	e-	.	.	.	.	.	.
16D#\	.	16ff#\	16aa\	.	.	.	.	.	.	.	.
16D#\	.	16ee\	16gg\	8D#X/	-jus	.	.	.	.	.	.
16D#\JJ	.	16ff#\JJ	16aa\JJ	.	.	.	.	.	.	.	.
!	!	!LO:TX:a:t=P:problem=mixedbeam	!	!	!	!	!	!	!	!	!
16D#\LL	.	16d#X/LL	16b\LL	8D#/	sa-	.	.	.	.	.	.
16D#\	.	16ff#\	16aa\	.	.	.	.	.	.	.	.
16D#\	.	16ee\	16gg\	(16B\LL	-tu-	.	.	.	.	.	.
16D#\JJ	x	16ff#\JJ	16aa\JJ	16D#X\JJ)	.	.	.	.	.	.	.
8E\L	.	8ee\L	8gg\L	8E\	-ra-	.	.	.	.	.	.
8A\	.	8cc\J	16ff#\L	8A\	-bo	.	.	.	.	.	.
.	.	.	16ee\JJ	.	.	.	.	.	.	.	.
8B\	#	8b/L	4dd#Xt\	8.B\	pa-	.	.	.	.	.	.
!LO:TX:a:t=P:problem=mixedbeam	!	!	!	!	!	!	!	!	!	!	!
8BB\J	.	8a/J	.	.	.	.	.	.	.	.	.
.	.	.	.	16B\	-ni-	.	.	.	.	.	.
=51	=51	=51	=51	=51	=51	=51	=51	=51	=51	=51	=51
!	!	!	!	!	!	!	!	!	!	!LO:PB:g=original	!
!	!	!	!	!	!	!	!	!	!	!LO:TX:a:t=Soli	!
4E\	.	4g/	4ee\	4E\	-bus	00r	.	00r	.	8b\	Sa-
.	.	.	.	.	.	.	.	.	.	8b\	-cer-
4D#X/	6	4r	4r	4r	.	.	.	.	.	(16b\LL	-do-
.	.	.	.	.	.	.	.	.	.	16a\JJ)	.
.	5	.	.	.	.	.	.	.	.	(16g/LL	-tes
.	.	.	.	.	.	.	.	.	.	16f#/JJ)	.
8E\L	.	2r	2r	2r	.	.	.	.	.	8g/	e-
8F#\	.	.	.	.	.	.	.	.	.	8d,</	-jus
8G\	.	.	.	.	.	.	.	.	.	8ee\	in-
8E\J	.	.	.	.	.	.	.	.	.	16dd\	-du-
.	.	.	.	.	.	.	.	.	.	16ee\	-am
=52	=52	=52	=52	=52	=52	=52	=52	=52	=52	=52	=52
!LO:PB:g=original	!	!	!LO:LB:g=original	!	!	!	!	!	!	!	!
!	!	!LO:SIC:s:o=:v:brak kreski taktowej	!LO:TX:a:t=8	!	!	!	!	!	!	!	!
4A\	7	00r	00r	00r	.	.	.	.	.	8cc\	sa-
.	.	.	.	.	.	.	.	.	.	(16b\LL	-lu-
.	.	.	.	.	.	.	.	.	.	16cc\JJ)	.
4D/	7	.	.	.	.	.	.	.	.	16a\LL	-ta-
.	.	.	.	.	.	.	.	.	.	16dd\	.
.	.	.	.	.	.	.	.	.	.	16cc\	.
.	.	.	.	.	.	.	.	.	.	16dd\JJ	.
8G\L	.	.	.	.	.	.	.	.	.	8b\	.
8A\	.	.	.	.	.	.	.	.	.	8g/	ri
8B\	.	.	.	.	.	.	.	.	.	8r	.
8G\J	.	.	.	.	.	.	.	.	.	8dd\	et
=53	=53	=53	=53	=53	=53	=53	=53	=53	=53	=53	=53
4F#\	6	.	.	.	.	.	.	.	.	(16dd\LL	san-
.	.	.	.	.	.	.	.	.	.	16cc\JJ)	.
.	5	.	.	.	.	.	.	.	.	(16b\LL	-cti
.	.	.	.	.	.	.	.	.	.	16a\JJ)	.
8G\L	.	.	.	.	.	.	.	.	.	8g/	e-
8E\J	.	.	.	.	.	.	.	.	.	8g/	-jus
8C/L	.	.	.	.	.	.	.	.	.	(16ee\LL	ex-
.	.	.	.	.	.	.	.	.	.	16dd\JJ)	.
8AA/J	.	.	.	.	.	.	.	.	.	(16cc\LL	-ul-
.	.	.	.	.	.	.	.	.	.	16b\JJ)	.
!	!	!	!	!	!	!	!	!	!	!LO:SIC:o=:v:znak łamania taktu	!
!	!	!	!	!	!	!	!	!	!	!LO:PB:g=original	!
4D\	5 4	.	.	.	.	.	.	.	.	8a\	-ta-
.	x 3	.	.	.	.	.	.	.	.	(16b\LL	-ti-
.	.	.	.	.	.	.	.	.	.	16cc\JJ)	.
=54	=54	=54	=54	=54	=54	=54	=54	=54	=54	=54	=54
8GG/L	.	.	.	.	.	.	.	.	.	8b\	-o-
8AA/	.	.	.	.	.	.	.	.	.	8g,</	-ne
8BB/	.	.	.	.	.	.	.	.	.	8dd\	ex-
8GG/J	.	.	.	.	.	.	.	.	.	8g/	-ulta-
8C/L	6	.	.	.	.	.	.	.	.	16a\LL	.
.	.	.	.	.	.	.	.	.	.	16b\	.
8AA/	.	.	.	.	.	.	.	.	.	16g\	.
.	.	.	.	.	.	.	.	.	.	16a\JJ	.
8D/	4	.	.	.	.	.	.	.	.	8b\L	.
8DD/J	3	.	.	.	.	.	.	.	.	8aT\J	.
=55	=55	=55	=55	=55	=55	=55	=55	=55	=55	=55	=55
!	!	!	!	!	!	!	!	!LO:TX:a:t=Solo	!	!	!
8GG/L	.	.	.	.	.	1r	.	4g\	Il-	4g/	-bunt
8D/	.	.	.	.	.	.	.	.	.	.	.
8BB/	.	.	.	.	.	.	.	8g\	-luc	4r	.
8GG/J	.	.	.	.	.	.	.	8d\	pro-	.	.
4C/	.	.	.	.	.	.	.	8e\	-du-	2r	.
.	.	.	.	.	.	.	.	8e\	-cam	.	.
8r	.	.	.	.	.	.	.	(16f#\LL	cor-	.	.
.	.	.	.	.	.	.	.	16g\JJ)	.	.	.
8D/	.	.	.	.	.	.	.	(16e\LL	-nu	.	.
.	.	.	.	.	.	.	.	16f#\JJ)	.	.	.
=56	=56	=56	=56	=56	=56	=56	=56	=56	=56	=56	=56
!LO:TX:a:t=P:problem=mixedbeam	!	!	!	!	!	!LO:TX:a:t=Solo	!	!	!	!	!
8GG/L	.	00r	00r	00r	.	4r	.	8g\	Da-	00r	.
16G\L	.	.	.	.	.	.	.	8g\	-vid	.	.
16A\JJ	.	.	.	.	.	.	.	.	.	.	.
8B\L	.	.	.	.	.	(16d\LL	I-	8r	.	.	.
.	.	.	.	.	.	16e\JJ)	.	.	.	.	.
8F#\J	6	.	.	.	.	(16d\LL	-ni-	8d\	pa-	.	.
.	.	.	.	.	.	16c\JJ)	.	.	.	.	.
!LO:SIC:o=:v:znak łamania taktu	!	!	!	!	!	!	!	!	!	!	!
!LO:PB:g=original	!	!	!	!	!	!	!	!	!	!	!
4E\	7	.	.	.	.	8B\	-mi-	8g\	-ra-	.	.
.	.	.	.	.	.	8B\	-cos	16f#\	-vi	.	.
.	.	.	.	.	.	.	.	16g\	lu-	.	.
4A\	7 #	.	.	.	.	8c#X\	ej-	8e\	-cer-	.	.
.	.	.	.	.	.	16B\	-us	8a\	-nam	.	.
.	.	.	.	.	.	16c#X\	in-	.	.	.	.
=57	=57	=57	=57	=57	=57	=57	=57	=57	=57	=57	=57
!	!	!	!	!	!	!	!	!LO:PB:g=original	!	!	!
!LO:TX:a:t=P:problem=mixedbeam	!	!	!	!	!	!	!	!	!	!	!
8D/L	.	.	.	.	.	8d\	-du-	8f#\	Chri-	.	.
8G\J	6	.	.	.	.	16e\	-am	8e\	-sto	.	.
.	.	.	.	.	.	16d\	con-	.	.	.	.
!LO:TX:a:t=P:problem=mixedbeam	!	!	!	!	!	!	!	!	!	!	!
8A\L	4	.	.	.	.	8.c#X\	-fu-	4eT\	me-	.	.
8AA\J	#	.	.	.	.	.	.	.	.	.	.
.	.	.	.	.	.	16c#\	-si	.	.	.	.
!	!	!	!	!	!	!LO:SIC:o=:v:znak łamania taktu	!	!	!	!	!
!LO:TX:a:t=P:problem=mixedbeam	!	!	!	!	!	!LO:PB:g=original	!	!	!	!	!
8D/L	.	.	.	.	.	8d\	o-	4d\	-o	.	.
16d\L	.	.	.	.	.	8d,<\	-ne	.	.	.	.
16c\JJ	.	.	.	.	.	.	.	.	.	.	.
8B\L	.	.	.	.	.	8d\	Su-	4r	.	.	.
8G\J	.	.	.	.	.	8B\	-per	.	.	.	.
=58	=58	=58	=58	=58	=58	=58	=58	=58	=58	=58	=58
!LO:TX:a:t=P:problem=mixedbeam	!	!	!	!	!	!	!	!	!	!	!
8C/L	.	.	.	.	.	(16e\LL	ip-	0r	.	.	.
.	.	.	.	.	.	16f#\JJ)	.	.	.	.	.
16c\L	.	.	.	.	.	(16e\LL	-sum	.	.	.	.
16B\JJ	.	.	.	.	.	16d\JJ)	.	.	.	.	.
8A\L	.	.	.	.	.	(16c\LL	au-	.	.	.	.
.	.	.	.	.	.	16d\JJ)	.	.	.	.	.
8G\J	.	.	.	.	.	(16c\LL	-tem,	.	.	.	.
.	.	.	.	.	.	16B\JJ)	.	.	.	.	.
8F#\L	.	.	.	.	.	(16A/LL	ef-	.	.	.	.
.	.	.	.	.	.	16B/JJ)	.	.	.	.	.
8E\J	.	.	.	.	.	(16A/LL	-flo-	.	.	.	.
.	.	.	.	.	.	16G/JJ)	.	.	.	.	.
!LO:TX:a:t=P:problem=mixedbeam	!	!	!	!	!	!	!	!	!	!	!
8D/L	.	.	.	.	.	8F#/	-re-	.	.	.	.
16d\L	.	.	.	.	.	16E/	-bit	.	.	.	.
16c\JJ	.	.	.	.	.	16D/	san-	.	.	.	.
=59	=59	=59	=59	=59	=59	=59	=59	=59	=59	=59	=59
8B\L	6	.	.	.	.	8G/	-cti-	.	.	.	.
8A\J	6	.	.	.	.	8c\	-fi-	.	.	.	.
!LO:TX:a:t=P:problem=mixedbeam	!	!	!	!	!	!	!	!	!	!	!
8G\L	.	.	.	.	.	8B\	-ca-	.	.	.	.
8C/J	.	.	.	.	.	16A/	-ti-	.	.	.	.
.	.	.	.	.	.	16G/	-o	.	.	.	.
8D/L	4	.	.	.	.	4F#t/	me-	.	.	.	.
8DD/J	3	.	.	.	.	.	.	.	.	.	.
4GG/	.	.	.	.	.	4G/	-a	.	.	.	.
=60	=60	=60	=60	=60	=60	=60	=60	=60	=60	=60	=60
!	!	!LO:SIC:s:o=:v:brak kreski taktowe	!	!	!	!LO:PB:g=original	!	!	!	!	!
!LO:TX:a:t=Tutti	!	!LO:TX:a:t=Tutti	!LO:TX:b:t=Gloria Tutti	!LO:TX:a:t=Tutti	!	!LO:TX:a:t=Tutti	!	!LO:TX:a:t=T.	!	!LO:TX:a:t=Tutti	!
8G\L	.	16gg\LL	16gg\LL	8G\	Glo-	8B\	Glo-	8g\	Glo-	16r	.
.	.	16gg\	16gg\	.	.	.	.	.	.	16dd\LL	Glo-
8G\	.	16gg\	16gg\	16G\	-ri-	16B\	-ria	16g\	-ri-	16cc\	.
.	.	16gg\JJ	16gg\JJ	16G\	-a	16B\	.	16g\	-a	16dd\JJ	.
!	!	!LO:TX:a:t=P:problem=mixedbeam x 2	!LO:TX:a:t=P:problem=mixedbeam x 2	!	!	!	!	!	!	!	!
*	*	*	*	*	*ij	*	*ij	*	*ij	*	*
8G\	.	16g/LL	16g/LL	8G\	Glo-	8B\	Glo-	8g\	Glo-	16b\LL	.
.	.	16gg\	16gg\	.	.	.	.	.	.	16dd\	.
8G\J	.	16gg\	16gg\	16G\	-ri-	16B\	-ri-	16g\	-ri-	16cc\	.
.	.	16gg\JJ	16gg\JJ	16G\	-a	16B\	-a	16g\	-a	16dd\JJ	.
*	*	*	*	*	*Xij	*	*Xij	*	*Xij	*	*
!	!	!	!	!	!	!	!	!	!	!LO:TX:a:t=P:problem=mixedbeam	!
!LO:SIC:o=:v:znak łamania taktu	!	!LO:SIC:o=:v:znak łamania taktu	!	!	!	!	!	!	!	!	!
!LO:PB;g=original	!	!LO:PB:g=original	!	!	!	!	!	!	!	!	!
8F#\L	6	16dd\LL	16dd\LL	8F#\	Pa-	8d\	Pa-	8a\	Pa-	16d/LL	.
.	.	16dd\	16dd\	.	.	.	.	.	.	16cc\	.
8F#\J	5	16dd\	16dd\	8F#\	-tri	8d\	-tri	8a\	-tri	16b\	.
.	.	16dd\JJ	16dd\JJ	.	.	.	.	.	.	16cc\JJ	.
!	!	!	!LO:TX:a:t=P:problem=mixedbeam	!	!	!	!	!	!	!	!
4r	.	16d/LL	16d/LL	4r	.	4r	.	16r	.	16a\LL	.
.	.	16cc\	16cc\	.	.	.	.	16a\LL	glo-	16cc\	.
.	.	16b\	16b\	.	.	.	.	16g\	.	16b\	.
.	.	16cc\JJ	16cc\JJ	.	.	.	.	16a\JJ	.	16cc\JJ	.
=61	=61	=61	=61	=61	=61	=61	=61	=61	=61	=61	=61
!	!	!	!	!LO:PB:g=original	!	!	!	!	!	!	!
16r	.	16f#/LL	16f#/LL	16r	.	2r	.	16f#\LL	.	8f#/	.
16d\LL	5_ 3_	16f#/	16f#/	16d\LL	glo-	.	.	16f#\	.	.	.
16c\	.	16f#/	16f#/	16c\	.	.	.	16e\	.	16f#/	-ri-
16d\JJ	.	16f#/JJ	16f#/JJ	16d\JJ	.	.	.	16f#\JJ	.	16f#/	-a
!LO:TX:a:t=P:problem=mixedbeam	!	!	!	!LO:TX:a:t=P:problem=mixedbeam	!	!	!	!	!	!	!
!	!	!	!	!	!	!	!	!	!	!LO:SIC:o=:v:znak łamania taktu	!
!	!	!	!	!	!	!	!	!	!	!LO:PB:g=original	!
16D/LL	.	16a/LL	16a/LL	16D/LL	.	.	.	8d\	.	8a\	Pa-
16c\	.	16a/	16a/	16c\	.	.	.	.	.	.	.
16B\	.	16a/	16a/	16B\	.	.	.	16d\	-ri-	8a\	-tri
16c\JJ	.	16a/JJ	16a/JJ	16c\JJ	.	.	.	16d\	-a	.	.
8F#\L	6_ 5_	16cc\LL	16cc\LL	8F#\	.	16r	.	8a\	glo-	16r	.
.	.	16cc\	16cc\	.	.	16A/LL	glo-	.	.	16cc\LL	glo-
8F#\	.	16cc\	16cc\	16F#\	-ria	16G/	.	16a\	-ri-	16b\	.
.	.	16cc\JJ	16cc\JJ	16F#\	.	16A/JJ	.	16a\	-a	16cc\JJ	.
!	!	!LO:TX:a:t=P:problem=mixedbeam	!LO:TX:a:t=P:problem=mixedbeam	!	!	!	!	!LO:SIC:o=:v:znak łamania taktu	!	!	!
!	!	!	!	!	!	!	!	!LO:PB:g=original	!	!	!
8F#\	.	16a/LL	16a/LL	8F#\	glo-	16F#/LL	.	8a\	glo-	16a\LL	.
.	.	16aa\	16aa\	.	.	16A/	.	.	.	16cc\	.
8F#\J	.	16aa\	16aa\	16F#\	-ri-	16G/	.	16a\	-ri-	16b\	.
.	x	16aa\JJ	16aa\JJ	16F#\	-a	16A/JJ	.	16a\	-a	16cc\JJ	.
=62	=62	=62	=62	=62	=62	=62	=62	=62	=62	=62	=62
!	!	!LO:TX:a:t=P:problem=mixedbeam	!LO:TX:a:t=P:problem=mixedbeam x 2	!	!	!	!	!	!	!	!
4G\	.	16gg\LL	16gg\LL	8G\	Fi-	8B\	.	8g\	Fi-	8b\	.
.	.	16g/	16g/	.	.	.	.	.	.	.	.
.	.	16g/	16g/	16G\	-li-	16B\	-ri-	16g\	-li-	16b\	-ri-
.	.	16g/JJ	16g/JJ	16G,<\	-o,	16B\	-a	16g,<\	-o,	16b\	-a
8D#X/L	5_	16a/LL	16a/LL	8D#X/	glo-	8B\	glo-	8a\	glo-	16r	.
.	.	16a/	16a/	.	.	.	.	.	.	16ff#\LL	glo-
8D#/J	.	16a/	16a/	16D#/	-ria	16B\	-ri-	16a\	-ri-	16ee\	.
.	.	16a/JJ	16a/JJ	16D#/	.	16B\	-a	16a,<\	-a	16ff#\JJ	.
*	*	*	*	*	*ij	*	*ij	*	*ij	*	*
!	!	!	!LO:TX:a:t=P:problem=mixedbeam	!	!	!	!	!	!	!	!
8D#/L	.	16b\LL	16b/LL	8F#\	glo-	8.d#X\	glo-	8a\	glo-	16dd#X\LL	.
.	.	16aa\	16aa\	.	.	.	.	.	.	16ff#\	.
8D#/	.	16gg\	16gg\	16F#\	-ri-	.	.	16a\	-ri-	16ee\	.
!	!	!LO:SIC:o=:v:znak łamania taktu	!	!	!	!	!	!	!	!	!
.	.	16aa\JJ	16aa\JJ	16F#\	-a	16d#\	-ri-	16a\	-a	16ff#\JJ	.
*	*	*	*	*	*	*	*	*	*Xij	*	*
!	!	!	!LO:SIC:o=:v:znak łamania taktu	!	!	!	!	!	!	!	!
!	!	!	!LO:PB:g=original	!	!	!	!	!	!	!	!
8D#/	.	16dd#X\LL	16dd#X\LL	8A\	glo-	4B\	-a	16r	.	16a\LL	.
*	*	*	*	*	*	*	*Xij	*	*	*	*
.	.	16ff#\	16ff#\	.	.	.	.	16b\LL	glo-	16dd#X\	.
8D#/J	.	16ee\	16ee\	16A\	-ri-	.	.	16a\	.	16cc\	.
.	x	16ff#\JJ	16ff#\JJ	16A\	-a	.	.	16b\JJ	.	16dd#\JJ	.
*	*	*	*	*	*Xij	*	*	*	*	*	*
=63	=63	=63	=63	=63	=63	=63	=63	=63	=63	=63	=63
!	!	!LO:PB:g=original	!	!LO:PB:g=original	!	!LO:PB:g=original	!	!	!	!	!
8E\L	.	16gg\LL	16gg\LL	8E\	et	8e\	Fi-	16g\LL	.	8b\	.
.	.	16b\	16b\	.	.	.	.	16b\	.	.	.
8F#\	6\	16b\	16b\	8F#\	spi-	16e\	-li-	16a\	.	16b\	-ria
.	.	16b\JJ	16b\JJ	.	.	16d#X\	-o	16b\JJ	.	16b,<\	.
8G\	6	16b\LL	16b\LL	8G\	-ri-	8e\	et	16g\	.	8ee\	et
.	.	16ee\	16ee\	.	.	.	.	16g\	-ri-	.	.
8A\J	6	16ee\	16ee\	16G\	-tu-	8c\	Spi-	16g\	-a	(16ff#\LL	Spi-
.	5	16ee\JJ	16ee\JJ	16A\	-i	.	.	16f#\	Spi-	16ee\JJ)	.
8B\L	#	16dd#X\LL	16dd#X\LL	8B\L	san-	8B\	-ri-	8f#\	-ri-	8dd#X\	-ri-
.	.	16bb\	16bb\	.	.	.	.	.	.	.	.
8A\	5	16bb\	16bb\	8A\	.	16c\	-tu-	16f#\	-tu-	16ee\	-tu-
.	.	16bb\JJ	16bb\JJ	.	.	16c\	-i	16f#\	-i	16ff#\	-i
!	!	!LO:TX:a:t=P:problem=mixedbeam	!LO:TX:a:t=P:problem=mixedbeam	!	!	!	!	!LO:SIC:o=:v:znak łamania taktu	!	!	!
!	!	!	!	!	!	!	!	!LO:PB:g=original	!	!	!
8B\	5 4	16bb\LL	16bb\LL	8B\	.	4B\	Sam-	(8e\L	San-	4ff#t\	San-
.	.	16b/	16b/	.	.	.	.	.	.	.	.
!LO:TX:a:t=P:problem=mixedbeam	!	!	!	!LO:TX:a:t=P:problem=mixedbeam	!	!	!	!	!	!	!
8BB/J	#	16b/	16b/	8BB/J	.	.	.	8d#X\J)	.	.	.
.	.	16b/JJ	16b/JJ	.	.	.	.	.	.	.	.
=64	=64	=64	=64	=64	=64	=64	=64	=64	=64	=64	=64
!	!	!	!	!	!	!	!	!	!	!LO:PB:g=original	!
!	!	!LO:TX:a:t=P:problem=mixedbeam x 2	!LO:TX:a:t=P:problem=mixedbeam	!	!	!	!	!	!	!	!
4E\	.	16b/LL	16b/LL	4E\	-cto	16B,<\	-cto,	16e,<\	-cto,	4ee,<\	-cto,
.	.	16gg\	16gg\	.	.	16e\LL	glo-	16g\LL	glo-	.	.
.	.	16ff#\	16ff#\	.	.	16d\	.	16f#\	.	.	.
.	.	16gg\JJ	16gg\JJ	.	.	16e\JJ	.	16g\JJ	.	.	.
8C#X/L	5	16ee\LL	16ee\LL	8c#X\	Si-	16G\LL	.	16e\LL	.	8ee\	si-
.	.	16gg\	16gg\	.	.	16e\	.	16g\	.	.	.
8C#/J	.	16ff#\	16ff#\	8c#\	-cut	16d\	.	16f#\	.	8ee\	-cut
.	.	16gg\JJ	16gg\JJ	.	.	16e\JJ	.	16g\JJ	.	.	.
!LO:SIC:o=:v:znak łamania taktu	!	!	!	!	!	!	!	!	!	!	!
!LO:PB:g=original	!	!	!	!	!	!	!	!	!	!	!
8C#X/L	.	16cc#X\LL	16cc#X\LL	8c#\	e-	16c#X\LL	.	16c#X\LL	.	8a\	e-
.	.	16gg\	16gg\	.	.	16e\	.	16g\	.	.	.
8C#/	.	16ff#\	16ff#\	8c#\	-rat	16d\	.	16f#\	.	8a\	-rat
.	.	16gg\JJ	16gg\JJ	.	.	16e\JJ	.	16g\JJ	.	.	.
!	!	!	!LO:TX:a:t=P:problem=mixedbeam	!	!	!	!	!	!	!	!
8C#/	.	16a/LL	16a\LL	8c#\	in	16G\LL	.	16A\LL	.	8ee\	in
.	.	16gg\	16gg\	.	.	16e\	.	16g\	.	.	.
8C#/J	.	16ff#\	16ff#\	8c#\	prin-	16d\	.	16f#\	.	8ee\	prin-
.	.	16gg\JJ	16gg\JJ	.	.	16e\JJ	.	16g\JJ	.	.	.
=65	=65	=65	=65	=65	=65	=65	=65	=65	=65	=65	=65
!LO:TX:a:t=P:problem=mixedbeam	!	!	!	!	!	!	!	!	!	!	!
16D/LL	.	16ff#\LL	16ff#\LL	8.d\	-ci-	8.A/	.	8.f#\	.	8.dd\	-ci-
16d\	.	16dd\	16dd\	.	.	.	.	.	.	.	.
16c\	.	16dd\	16dd\	.	.	.	.	.	.	.	.
16d\JJ	.	16dd\JJ	16dd\JJ	16d\	-pi-	16A/	-ri-	16f#\	-ri-	16dd\	-pi-
!LO:TX:a:t=P:problem=mixedbeam	!	!	!	!	!	!	!	!	!	!	!
16D/LL	.	16ff#\LL	16ff#\LL	8d\	-o	8A,</	-a	8f#,<\	-a	8dd,<\	-o
16c\	4_ 2_	16ff#\	16ff#\	.	.	.	.	.	.	.	.
16B\	.	16aa\	16aa\	8c-\	et	8A/	et	8f#\	et	8dd\	et
16c\JJ	x	16aa\JJ	16aa\JJ	.	.	.	.	.	.	.	.
!	!	!LO:SIC:o=:v:znak łamania taktu	!LO:SIC:o=:v:znak łamania taktu	!	!	!LO:SIC:o=:v:znak łamania taktu	!	!	!	!	!
!	!	!LO:PB:g=original	!LO:PB:g=original	!	!	!LO:PB:g=original	!	!	!	!	!
8B\L	6	16dd\LL	16dd\LL	8B\	nunc	8B\	nunc	8g\	nunc	8dd\	nunc
.	.	16dd\	16dd\	.	.	.	.	.	.	.	.
16G\L	.	16dd\	16dd\	(16G\LL	et	8B\	et	8g\	et	8dd\	et
16F#\JJ	.	16dd\JJ	16dd\JJ	16F#\JJ)	.	.	.	.	.	.	.
!	!	!	!	!LO:SIC:o=:v:znak łamania taktu	!	!	!	!	!	!	!
!	!	!	!	!LO:PB:g=original	!	!	!	!	!	!	!
8E\L	7	16ee\LL	16ee\LL	(8E\L	sem-	(8B\L	Sem-	(8g\L	sem-	(8dd\L	sem-
.	.	16ee\	16ee\	.	.	.	.	.	.	.	.
8A\J	#	16ee\	16ee\	8A\J)	.	8A\J)	.	8e\J)	.	8cc#X\J)	.
.	.	16ee\JJ	16ee\JJ	.	.	.	.	.	.	.	.
=66	=66	=66	=66	=66	=66	=66	=66	=66	=66	=66	=66
8D\L	.	16ff#\LL	16ff#\LL	4D/	-per	4A,</	per,	4f#\	-per	4dd,<\	-per
.	.	16ff#\	16aa\	.	.	.	.	.	.	.	.
8E\	.	16ff#\	16aa\	.	.	.	.	.	.	.	.
.	.	16ff#\JJ	16aa\JJ	.	.	.	.	.	.	.	.
!	!	!	!	!	!	!	!	!LO:SIC:o=:v:znak łamania taktu	!	!	!
!	!	!	!	!	!	!	!	!LO:PB:g=original	!	!	!
8F#\	.	16ff#\LL	16aa\LL	8F#\	et	8d\	et	8d\	et	8a\	et
.	.	16ff#\	16aa\	.	.	.	.	.	.	.	.
8D\J	.	16ff#\	16aa\	8D/	in	8A/	in	8f#\	in	8dd\	in
.	.	16ff#\JJ	16aa\JJ	.	.	.	.	.	.	.	.
8G\L	.	16gg\LL	16gg\LL	8G\	sae-	8B\	sae-	8g\	sae-	8b\	sae-
.	.	16gg\	16bb\	.	.	.	.	.	.	.	.
8A\	.	16gg\	16bb\	16G\	-cu-	16c\	-cu-	16g\	-cu-	16a\	-cu-
.	.	16gg\JJ	16bb\JJ	16A\	-la	16d\	-la	16g\	-la	16g/	-la
8B\	.	16gg\LL	16bb\LL	8B\	sae-	8G/	sae-	8g\	sae-	8dd\	sae-
.	.	16gg\	16bb\	.	.	.	.	.	.	.	.
8G\J	.	16gg\	16bb\	8G\	-cu-	8B\	-cu-	8b\	-cu-	8gg\	-cu-
.	.	16gg\JJ	16bb\JJ	.	.	.	.	.	.	.	.
=67	=67	=67	=67	=67	=67	=67	=67	=67	=67	=67	=67
!	!	!	!	!	!	!	!	!	!	!LO:PB:g=original	!
8c\L	6_ 5_	16gg\LL	16aa\LL	8c\	-lo-	8c\	-lo-	8a\	-lo-	(16ee\LL	-lo-
.	.	16gg\	16aa\	.	.	.	.	.	.	16dd\JJ)	.
8A\J	.	16gg\	16aa\	8A\	-rum	8c\	-rum	8g\	-rum	(16cc\LL	-rum
.	.	16gg\JJ	16aa\JJ	.	.	.	.	.	.	16b\JJ)	.
!LO:TX:a:t=P:problem=mixedbeam	!	!	!	!LO:TX:a:t=P:problem=mixedbeam	!	!	!	!	!	!	!
8d\L	5 4	16ff#\LL	16aa\LL	8d\L	a-	4A/	a-	(8g\L	a-	4aT\	a-
.	x 3	16ff#\	16aa\	.	.	.	.	.	.	.	.
8D/J	.	16ff#\	16aa\	8D/J	.	.	.	8f#\J)	.	.	.
.	.	16ff#\JJ	16aa\JJ	.	.	.	.	.	.	.	.
4G\	.	4gg\	4bb\	4G\	-men	4B\	-men	8g,<\	-men	8g,</	-men
.	.	.	.	.	.	.	.	8g\L	a-	8b\L	a-
4r	.	4r	4r	4r	.	4r	.	8a\	.	8cc\	.
.	.	.	.	.	.	.	.	8b\J	.	8dd\J	.
=68	=68	=68	=68	=68	=68	=68	=68	=68	=68	=68	=68
!LO:PB:g=original	!	!	!	!	!	!	!	!	!	!	!
[2GG/	6 4	16ee\LL	16ccc\LL	1G	a-	8c\L	a-	2g\	-men	8ee\L	.
.	.	16gg\	16gg\	.	.	.	.	.	.	.	.
.	.	16dd\	16bb\	.	.	8B\	.	.	.	8dd\	.
.	5 3	16gg\JJ	16gg\JJ	.	.	.	.	.	.	.	.
.	.	16ee\LL	16ccc\LL	.	.	8c\	.	.	.	8ee\	.
.	.	16gg\	16gg\	.	.	.	.	.	.	.	.
.	6 4	16dd\	16bb\	.	.	8d\J	.	.	.	8dd\J	.
.	5 3	16gg\JJ	16gg\JJ	.	.	.	.	.	.	.	.
!	!	!	!LO:SIC:o=:v:znak łamania taktu	!	!	!LO:SIC:o=:v:znak łamania taktu	!	!	!	!	!
!	!	!	!LO:PB:g=original	!	!	!LO:PB:g=original	!	!	!	!	!
2GG/_	6 4	16ee\LL	16ccc\LL	.	.	8c\L	.	2g\	a-	8ee\L	.
.	.	16gg\	16gg\	.	.	.	.	.	.	.	.
.	.	16dd\	16bb\	.	.	8B\	.	.	.	8dd\J	.
.	.	16gg\JJ	16gg\JJ	.	.	.	.	.	.	.	.
!	!	!LO:SIC:o=:v:znak łamania taktu	!	!	!	!	!	!	!	!	!
!	!	!LO:PB:g=original	!	!	!	!	!	!	!	!	!
.	5 3	16ee\LL	16ccc\LL	.	.	8c\	.	.	.	4ee\	.
.	.	16gg\	16ccc\	.	.	.	.	.	.	.	.
.	6 4	16cc\	16ccc\	.	.	8A\J	.	.	.	.	.
.	.	16ee\JJ	16ccc\JJ	.	.	.	.	.	.	.	.
=69	=69	=69	=69	=69	=69	=69	=69	=69	=69	=69	=69
1GG;]	5 3	1gg;	1bb;	1GG;	-men	1B;	-men	1g;	-men	1dd;	-men
==	==	==	==	==	==	==	==	==	==	==	==
*-	*-	*-	*-	*-	*-	*-	*-	*-	*-	*-	*-
!!!system-decoration: s1,s2,s3,s4,s5,s6,s7
!!!EED: Leszek Kubiak
!!!EEV: 2020-06-02
!!!RDF**kern: > = above
!!!RDF**kern: < = below
!!!ENC: Andrzej Gręziak
!!!END: 2020-05-06
!!!YEC: Copyright 2022 Narodowy Instytut Fryderyka Chopina (https://polishscores.org)
!!!YEM: Licence CC BY 4.0 (https://creativecommons.org/licenses/by/4.0)
